!!!!SEGMENT: pl-wtm--r-2013_smietanski-emil-wladyslaw--ballade-op-6.krn
!!!cenid: 18xx:1997
!!!COM: Śmietański, Emil Władysław
!!!COM-rismid: pe50041781
!!!CDT: 1845-1886
!!!CNT: Polish
!!!OTL: Ballade op. 6
!!!PDT: 1866
!!!AGN: Secular; Ballade
!!!SMS-siglum: PL-Wtm
!!!SMS-shelfmark: R 2013
!!!SMS-shelfwork: W
!!!SMS-variant:
!!!SMS-altvar:
!!!NIFC-rismid: 1001111544
!!!URL-scan: http://repozytorium.nifc.pl/skany/pl-wtm-nut--r2013
!!!ONB-nifc:
!!!AIN: 1 empty 1 piano
!!!key:
**kern	**kern	**dynam
*part2	*part1	*part1
*staff2	*staff1	*
*Iempty	*Ipiano	*
*	*I"[Pianoforte]	*
*	*I'[pf]	*
*clefF4	*clefG2	*
*k[b-e-a-d-]	*k[b-e-a-d-]	*
*A-:	*A-:	*
*M6/8	*M6/8	*
=1	=1	=1
!	!LO:TX:t=P:problem=all\left, middle, right&colon; global	!
8r>	4a-/	.
!LO:TX:b:t=ms.	!	!
8g>\	.	.
8a->\L	4cc/	p
8f>\	.	.
8g>\	4ee-/	.
8e->\J	.	.
=2	=2	=2
!	!LO:TX:b:t=mysterioso	!
8r>	4f/	.
8en>\	.	.
8f>\L	4a-/	.
8dn>\	.	.
8e-X>\	4cc/	.
8c>\J	.	.
=3	=3	=3
8d->\L	4f/	.
8c>\J	.	.
8d->\L	4b-/	.
8dn>\J	.	.
8e->\L	4g/	.
8d-X>\J	.	.
=4	=4	=4
8c>\L	4.a-/	.
8e->\	.	.
8f>\	.	.
8g>\	8ee-/L	<
8a->\	8cc/	.
8b->\J	8ee-/J	[[
=5	=5	=5
8cc>\L	4aa-/	>
8a->\J	.	.
!	!LO:TX:b:t=espressivo	!
8b->\L	4gg/	.
8bn>\J	.	.
8cc>\L	4gg-X/	.
8a->\J	.	.
=6	=6	=6
8dd->\L	4ff/	.
8f>\J	.	.
8g>\L	4een/	.
8a->\J	.	.
8an>\L	4ee-X/	]
8f>\J	.	.
=7	=7	=7
8b->\L	8ddn/L	>
8g>\J	8ee-/J	]
8a->\L	4cc/	.
8g>\J	.	.
8f>\L	4cc/ 4a-/	.
8e-X>\J	.	.
!!LO:LB:g=original
=8	=8	=8
4e-\ [4A-\	8cc/L 8a-/	<
.	8ee-/J 8g/	[
8f\L 8A-\]	4cc/ 4a-/	.
8en\J	.	.
8e-X\L 8A-\	8cc/L 8a-/	.
8en\J	8g/J	.
=9	=9	=9
4e-X\ 4A-\	4cc\ 4a-\	.
4e-\ 4A-\	4a-/ 4c/	.
4f-X\ 4A-\	4a-/ 4c-X/	.
=10	=10	=10
4e-\ 4A-\	4a-/ 4cn/	<
4e-\ 4E-\	4b-/ 4g/ 4d-/	.
4A-\ 4AA-\	4cc/ 4g-X/ 4c/	[[
=11	=11	=11
!LO:TX:t=P:problem=mixed beam	!	!
8DD-/L	4dd-\ 4f\ 4d-\	f
8c\J	.	.
8d-\L 8D-\	4ff\ 4dd-\ 4f\	.
8B-\J	.	.
8c\L 8AA-\	4aa-\ 4ee-\ 4a-\	.
8A-\J	.	.
=12	=12	=12
!LO:TX:t=P:problem=mixed beam	!	!
8BBB-/L	4b-/ 4d-/ 4B-/	.
8An\J	.	.
8B-\L 8BB-\	4dd-/ 4b-/ 4d-/	.
8G\J	.	.
8An\L 8FF\	4ff/ 4cc/ 4f/	.
8F\J	.	.
=13	=13	=13
8G-X\L 8GG-X\	4b-/ 4e-/ 4B-/	.
8F\J	.	.
8G-\L 8EE-\	4ee-/ 4b-/ 4e-/	.
8Gn\J	.	.
8A-\L 8AA-\	4cc/ 4a-/ 4c/	.
8G-X\J	.	.
=14	=14	=14
*2\right	*	*
!LO:TX:t=P:problem=2\right&colon; global	!	!
2F\ 2DD-\	8dd-\L 8a-\ 8d-\	>
.	8cc\J	.
.	8b-\L	.
.	8a-\J	.
4d-\	8g\L 8Bn\	]
.	8f\J	.
!!LO:LB:g=original
=15	=15	=15
4CC/	4en/ 4c/	pp
4en\ 4G\	8een\L 8cc\	.
.	8ff\J	.
4f\ 4G\	8ff#X\L 8bn\	.
.	8gg\J	.
=16	=16	=16
4CC\	4een\ 4cc\	.
4G\ 4C\	8cc/L 8en/	.
.	8e-X/	.
4A-\ 4C\	8cc/ 8en/	.
.	8e-X/J	.
=17	=17	=17
4G\ 4CC\	4cc\ 4en\	.
4en\ 4G\	8een\L 8cc\	.
.	8ff\J	.
4f\ 4G\	8ff#X\L 8bn\	.
.	8gg\J	.
=18	=18	=18
4en\ 4C\	4ccc\ 4een\ 4cc\	.
*clefG2	*	*
4een\ 4g\	8eeen\L 8ccc\	.
.	8fff\J	.
!	!	!LO:TX:b:t=diminuendo:dur=6q:problem=text with extention line
!	!	!LO:HP:t=diminuendo
4ff\ 4g\	8fff#X\L 8bbn\	>
.	8ggg\J	.
=19	=19	=19
*	*8va	*
4een\ 4c\	8cccc\L 8ggg\ 8ccc\	.
.	8cccc\ 8ggg\	>
8ccc\L	8aaan\ 8eeen\	]
8bbn\	8ggg\J 8dddn\	.
*	*X8va	*
8aan\	8eeen\L 8ccc\	.
8gg\J	8ggg\J 8bbn\	.
=20	=20	=20
4een\ 4cc\	8ccc\L 8gg\	.
.	8ccc\J 8gg\	.
8cc\L	8aan\L 8een\	.
8bn\J	8gg\J 8ddn\	.
8an\L	8ee\L 8cc\	.
8g\J	8gg\J 8bn\	.
!!LO:LB:g=original
=21	=21	=21
4g/ 4c/	4een\ 4cc\	.
4en/ 4c/	4cc\ 4g\	>
4e-X/ 4c/	4cc\ 4a-X\	]
*clefF4	*	*
=22	=22	=22
!	!LO:TX:t=P:problem=2\right&colon; global	!
2en\ 2c\	2cc\ 2g\	.
4r	4r	.
=23	=23	=23
8r>	4a-/	.
8g>\	.	.
8a->\L	4cc/	p
8f>\J	.	.
8g>\L	4ee-/	.
8e->\J	.	.
=24	=24	=24
8r>	4f/	<
8en>\	.	.
8f>\L	4a-/	[
8dn>\J	.	.
!LO:SIC:v:s=8e-	!	!
8e>\L	4cc/	.
8c>\J	.	.
=25	=25	=25
8d->\L	4f/	<
8c>\J	.	.
8d->\L	4b-/	[
8dn>\J	.	.
8e->\L 8E->\	4g/	.
8d-X>\J	.	.
=26	=26	=26
8c\L 8AA-\	4.a-/	.
8e-\J	.	.
8f\L	.	.
8g\J 8e-\	8ee-/L	<
8a-\L	8cc/	.
8e-\J	8ee-/J	.
=27	=27	=27
8c\L 8AA-\	4aa-\ 4ee-\ 4a-\	f
8A-\J	.	.
!	!LO:TX:t=P:problem=ołówkiem dopisane 4ee- u 4g	!
8B-\L	4gg\	.
8Bn\J	.	.
!	!LO:TX:t=P:problem=ołówkiem dopisane 4ee-, usunięte 4a- i 4d-	!
8c\L 8AA-\	4gg-X\	.
8A-\J	.	.
!!LO:LB:g=original
=28	=28	=28
8d-\L 8DD-\	4ff\ 4dd-\ 4f\	>
8F\J	.	.
8G\L	4een\ 4dd-\ 4en\	.
8A-\J	.	.
8An\L 8FF\	4ee-X\ 4cc\ 4e-X\	]
8F\J	.	.
=29	=29	=29
*	*^	*
8B-\L 8BB-\	8ddn\L 8b-\ 8dn\	4ryy	.
8G\J 8GG\	8ee-\J 8e-\	.	.
!	!LO:TX:t=P:problem=8a- 8g poprawione na 4a-; ołówkiem dopisane c	!	!
8A-\L 8AA-\	4cc/	4a-\	p
8G\J 8GG\	.	.	.
!	!LO:TX:t=P:problem=usunięte 8f 8en; ołówkiem dopisane c	!	!
8F\L 8FF\	4cc/ 4a-/	4ryy	.
8En\J 8EEn\	.	.	.
*	*v	*v	*
=30	=30	=30
!	!LO:TX:t=P:problem=usunięte 4e-; ołówkiem dopisane c	!
4E-X\ 4EE-X\	4cc\ 4a-\	.
*clefG2	*	*
4cc\ 4e-\	8ccc\L 8aa-\	<
.	8ddd-\J	.
4dd-\ 4e-\	8fffn\L 8gg\	.
.	8eee-\J	[[
*clefF4	*	*
=31	=31	=31
*	*^	*
8AA-/L 8AAA-/	4aaa-\ 4aa-\	4ryy	.
8E-/J 8EE-/	.	.	.
!	!LO:TX:t=P:problem=8a- 8g poprawione na 4a-; ołówkiem dopisane c	!	!
8A-/L 8AA-/	4cc/	4a-\	p
8G/J 8GG/	.	.	.
!	!LO:TX:t=P:problem=usunięte 8f 8en; ołówkiem dopisane c	!	!
8F/L 8FF/	4cc/	4a-\	.
8En/J 8EEn/	.	.	.
*	*v	*v	*
=32	=32	=32
!	!LO:TX:t=P:problem=usunięte 4e-; ołówkiem dopisane c	!
4E-X/ 4EE-X/	4cc\ 4a-\	.
*clefG2	*	*
4cc\ 4e-\	8ccc\L 8aa-\	<
.	8ddd-\J	.
4dd-\ 4e-\	8fffn\L 8gg\	.
.	8eee-\J	[[
*clefF4	*	*
=33	=33	=33
8AA-/L 8AAA-/	4aaa-\ 4aa-\	.
8E-/J 8EE-/	.	.
!	!LO:TX:t=P:problem=8a- 8g poprawione na 4a-; ołówkiem dopisane c	!
8A-/L 8AA-/	4cc\ 4a-\	<
8E-/J 8EE-/	.	.
8A-/L 8AA-/	4cc\ 4a-\ 4c\	.
8En/J 8EEn/	.	.
!!LO:LB:g=original
=34	=34	=34
!	!LO:TX:b:t=molto	!
8AA-/L 8AAA-/	4cccc\ 4ccc\	.
8F/J 8FF/	.	.
!	!LO:TX:t=P:problem=8a- 8g poprawione na 4a-; ołówkiem dopisane c	!
8A-/L 8AA-/	4cc\ 4a-\	.
8F/J 8FF/	.	.
8A-/L 8AA-/	4cc\ 4a-\ 4c\	.
8F#X/J 8FF#X/	.	.
=35	=35	=35
!	!LO:TX:b:t=furioso	!
32G\LLL 32GG\	4cccc\ 4ccc\	.
32F#X\	.	.
32Fn\	.	.
32En\	.	.
32E-X\	.	.
32Dn\	.	.
32D-X\JJJ	.	.
32C/LLL	.	.
*	*2\right	*
32BBn/	2cc\ 2g\ 2en\ 2c\	.
32BB-X/	.	.
32AAn/	.	.
32AA-X/	.	.
32GG/	.	.
32FF#X/	.	.
32FFn/JJJ	.	.
32EEn/LLL	.	.
32EE-X/	.	.
32DDn/	.	.
32DD-X/	.	.
32CC/	.	.
32BBBn/	.	.
32BBB-X/	.	.
32AAAn/	.	.
32AAA-X/JJJ	.	.
=36	=36	=36
*tremolo	*	*
32GGG/LLL	4ccc\ 4cc\	ff
32FFF#X/	.	.
32GGG/	.	.
32FFF#/	.	.
32GGG/	.	.
32FFF#/	.	.
32GGG/	.	.
32FFF#/JJJ	.	.
*	*2\left	*
*	*clefF4	*
32GGG/LLL	2c\ 2G\ 2En\ 2C\	.
32CCC/	.	.
32GGG/	.	.
32CCC/	.	.
32GGG/	.	.
32CCC/	.	.
32GGG/	.	.
32CCC/	.	.
32GGG/	.	.
32CCC/	.	.
32GGG/	.	.
32CCC/	.	.
32GGG/	.	.
32CCC/	.	.
32GGG/	.	.
32CCC/JJJ	.	.
=37	=37	=37
32GGG/LLL	32GG/LLL	p
!	!LO:TX:b:t=tempestoso	!
32AAA-/	32AA-X/	.
32AAAn/	32AAn/	.
32BBB-/	32BB-/	.
32AAA/	32AA/	.
32AAA-X/	32AA-X/	.
32GGG/	32GG/	.
32FFF#X/JJJ	32FF#X/JJJ	.
*	*tremolo	*
32GGG/LLL	32GG/LLL	.
32CCC/	32CC/	.
32GGG/	32GG/	.
32CCC/	32CC/	.
32GGG/	32GG/	.
32CCC/	32CC/	.
32GGG/	32GG/	.
32CCC/	32CC/	.
32GGG/	32GG/	.
32CCC/	32CC/	.
32GGG/	32GG/	.
32CCC/	32CC/	.
32GGG/	32GG/	.
32CCC/	32CC/	.
32GGG/	32GG/	.
32CCC/JJJ	32CC/JJJ	.
*Xtremolo	*Xtremolo	*
!!LO:LB:g=original
=38	=38	=38
32GGG/LLL	32GG/LLL	<
32AAA-/	32AA-/	.
32AAAn/	32AAn/	.
32BBB-/	32BB-/	.
32BBB-/	32BB-/	.
32BBBn/	32BBn/	.
32CC/	32C/	.
32DD-/JJJ	32D-/JJJ	.
*tremolo	*tremolo	*
32CC/LLL	32C/LLL	[
32GGG/	32GG/	.
32CC/	32C/	.
32GGG/	32GG/	.
32CC/	32C/	.
32GGG/	32GG/	.
32CC/	32C/	.
32GGG/JJJ	32GG/JJJ	.
*Xtremolo	*Xtremolo	*
32GGG/LLL	32GG/LLL	<
32AAA-X/	32AA-X/	.
32AAAn/	32AAn/	.
32BBB-X/	32BB-X/	.
32BBB-/	32BB-/	.
32BBBn/	32BBn/	.
32CC/	32C/	.
32DD-/JJJ	32D-/JJJ	[[
=39	=39	=39
*tremolo	*tremolo	*
32CC/LLL	32C/LLL	.
32GGG/	32GG/	.
32CC/	32C/	.
32GGG/	32GG/	.
32CC/	32C/	.
32GGG/	32GG/	.
32CC/	32C/	.
32GGG/JJJ	32GG/JJJ	.
*Xtremolo	*Xtremolo	*
32GGG/LLL	32GG/LLL	<
32AAA-/	32AA-/	.
32AAAn/	32AAn/	.
32BBB-/	32BB-/	.
32BBB-/	32BB-/	.
32BBBn/	32BBn/	.
32CC/	32C/	.
32DD-/JJJ	32D-/JJJ	.
32DD-/LLL	32D-\LLL	.
32DDn/	32Dn\	.
32EE-/	32E-\	.
32EEn/	32En\	.
32EE/	32E\	.
32FF/	32F\	.
32FF#X/	32F#X\	.
32GG/JJJ	32G\JJJ	[[
=40	=40	=40
*	*clefG2	*
32GG/LLL	32G/LLL	.
32AA-/	32A-/	<
32AAn/	32An/	.
32BB-/	32B-/	.
32BB-/	32B-/	.
32BBn/	32Bn/	.
32C/	32c/	.
!	!LO:TX:b:t=al	!
32D-/	32d-/	.
32D-/	32d-/	.
32Dn/	32dn/	.
32E-/	32e-/	.
32En/	32en/	.
32E/	32e/	.
32F/	32f/	.
32F#X/	32f#X/	.
!LO:LB:g=original	!	!
32G/JJJ	32g/JJJ	.
32G\LLL	32g\LLL	.
32A-\	32a-\	.
32An\	32an\	.
32B-\	32b-\	.
32B-\	32b-\	.
32Bn\	32bn\	.
32c\	32cc\	.
32d-\JJJ	32dd-\JJJ	.
=41	=41	=41
32c\LLL 32C\	4ccc\ 4cc\	ff
32Bn\	.	.
32B-X\	.	.
32An\	.	.
32A-X\	.	.
32G\	.	.
32F#X\	.	.
32Fn\	.	.
!	!LO:TX:b:t=marcatissimo.	!
32En\	8cc\L 8g\ 8en\	.
32E-X\	.	.
32Dn\	.	.
32D-X\	.	.
32C\	8cc\ 8g\ 8e\	.
32BBn\	.	.
32BB-X\	.	.
32AAn\JJJ	.	.
32AA-X/LLL	8cc\ 8g\ 8e\	.
32GG/	.	.
32FF#X/	.	.
32FFn/	.	.
32EEn/	8cc\J 8g\ 8e\	.
32EE-X/	.	.
32DDn/	.	.
32DD-X/JJJ	.	.
=42	=42	=42
32CC/LLL	4cc\ 4g\ 4f\	.
32DD-/	.	.
32FF/	.	.
32GG/	.	.
32FF/	.	.
32GG/	.	.
32BB-/	.	.
32D-/JJJ	.	.
32GG/LLL	8gg\L 8b-\ 8f\	.
32BB-/	.	.
32D-/	.	.
32F/	.	.
32BB-/	8gg\ 8b-\ 8f\	.
32D-/	.	.
32F/	.	.
32G/JJJ	.	.
32D-/LLL	8gg\ 8b-\ 8f\	.
32F/	.	.
32G/	.	.
32B-/JJJ	.	.
32F\LLL	8gg\J 8b-\ 8f\	.
32G\	.	.
32B-\	.	.
32d-\JJJ	.	.
!!LO:PB:g=original
=43	=43	=43
32c\LLL 32C\	4ccc\ 4gg\ 4cc\ 4en\	ff
32Bn\	.	.
32B-X\	.	.
32An\	.	.
32A-X\	.	.
32G\	.	.
32F#X\	.	.
32Fn\	.	.
32En\	8cc\L 8g\ 8e\	.
32E-X\	.	.
!LO:SIC:v:s=32Dn	!	!
32D-\	.	.
32D-X\	.	.
32C\	8cc\ 8g\ 8e\	.
32BBn\	.	.
32BB-X\	.	.
32AAn\JJJ	.	.
32AA-X/LLL	8cc\ 8g\ 8e\	.
32GG/	.	.
32FF#X/	.	.
32FFn/	.	.
32EEn/	8cc\J 8g\ 8e\	.
32EE-X/	.	.
32DDn/	.	.
32DD-X/JJJ	.	.
=44	=44	=44
32CC/LLL	4cc\ 4g\ 4f\	.
32DD-/	.	.
32FF/	.	.
32GG/	.	.
32FF/	.	.
32GG/	.	.
32BB-/	.	.
32D-/JJJ	.	.
32GG\LLL	8gg\L 8b-\ 8f\	<
32BB-\	.	.
32D-\	.	.
32F\	.	.
32BB-\	8gg\ 8b-\ 8f\	.
32D-\	.	.
32F\	.	.
32G\JJJ	.	.
32D-\LLL	8gg\ 8b-\ 8f\	.
32F\	.	.
32G\	.	.
32B-\	.	.
32F\	8gg\J 8b-\ 8f\	[[
32G\	.	.
32B-\	.	.
32d-\JJJ	.	.
=45	=45	=45
32c\LLL 32C\	4ccc\ 4gg\ 4cc\ 4en\	ff
32Bn\	.	.
32B-X\	.	.
32An\	.	.
32A-X\	.	.
32G\	.	.
32F#X\	.	.
32Fn\	.	.
32En\	8cc\L 8g\ 8e\	.
32E-X\	.	.
32Dn\	.	.
32D-X\	.	.
32C\	8cc\ 8g\ 8e\	.
32BBn\	.	.
32BB-X\	.	.
32AAn\JJJ	.	.
32AA-X/LLL	8cc\ 8g\ 8e\	.
32GG/	.	.
32FF#X/	.	.
32FFn/	.	.
32EEn/	8cc\J 8g\ 8e\	.
32EE-X/	.	.
32DDn/	.	.
32DD-X/JJJ	.	.
!!LO:LB:g=original
=46	=46	=46
*tremolo	*	*
32CC/LLL	4cc\ 4g\ 4en\	ff
32CCC/	.	.
32CC/	.	.
32CCC/	.	.
32CC/	.	.
32CCC/	.	.
32CC/	.	.
32CCC/JJJ	.	.
4r	8c/L	.
!	!LO:TX:b:t=poco ritenuto	!
.	8c/J	.
32CC/LLL	4cc\ 4g\ 4e\	.
32CCC/	.	.
32CC/	.	.
32CCC/	.	.
32CC/	.	.
32CCC/	.	.
32CC/	.	.
32CCC/JJJ	.	.
*Xtremolo	*	*
=47	=47	=47
4r	8c/L	.
.	8c/J	.
4CC/ 4CCC/	8cc/L 8g/ 8en/	.
.	8c/J	.
4CC/ 4CCC/	8cc/L 8g/ 8e/	.
.	8c/J	.
=48	=48	=48
4CC/ 4CCC/	8c/L	.
.	8c/J	.
4DDn/ 4DDDn/	8c/L 8Bn/	.
.	8B-X/J	.
!	!LO:TX:t=P:problem=usunięty znak cn	!
4EEn/ 4EEEn/	8c/L 8An/	.
.	8G#X/J	.
=49||	=49||	=49||
*k[b-enandn]	*k[b-enandn]	*
4FFF/	4cn/ 4A/	.
4A\ 4C\	8a\L 8f\	p
!	!LO:TX:b:t=cantabile.	!
.	8b-\J	.
4B-\ 4C\	8bn\L 8e\	.
.	8cc\J	.
=50	=50	=50
4FF\	4dd\ 4fM\	.
4A\ 4C\	4cc\ 4f\	.
4A\ 4C#X\	4ff\ 4f\	.
!!LO:LB:g=original
=51	=51	=51
4DDD/	4ff\ 4f\	.
!LO:TX:t=P:problem=dwudźwięk poprawiony ołówkiem	!	!
4A\ 4D\	8f\L 8d\	.
.	8g\J	.
4G\ 4AA\	8g#X\L 8c#X\	.
.	8a\J	.
=52	=52	=52
4DD\	4b-\ 4dM\	.
4F\ 4AA\	4a\ 4d\	<
!LO:TX:t=P:problem=ołówkiem dopisane BB-	!LO:TX:t=P:problem=ołówkiem dopisane d	!
4F\	4dd\	[[
=53	=53	=53
!LO:TX:t=P:problem=ołówkiem dopisane C	!	!
4CC/	4dd\ 4en\	.
!LO:TX:t=P:problem=ołówkiem dopisane E	!LO:TX:t=P:problem=usunięte e	!
4B-\	4g\	.
4c\ 4G\	8b-\L 8e\	.
.	8a\J	.
=54	=54	=54
4FF\	4g#X\ 4e\	.
4d\ 4A\	4a\ 4f\	<
4c\ 4F\	4ff\ 4a\	[[
=55	=55	=55
4EE\	4ff\ 4g#X\	.
!	!LO:TX:t=P:problem=usunięte g	!
4d\ 4G#X\	4bn\	.
4e\ 4Bn\	8dd\L 8g#\	.
.	8cc\J	.
=56	=56	=56
!LO:TX:t=P:problem=dwudźwięk poprawiony ołówkiem	!LO:TX:t=P:problem=ołówkiem dopisane e	!
4A\ 4AA\	8bn\L 8g#X\	<
.	8cc\J 8a\	.
!LO:TX:t=P:problem=dwudźwięk poprawiony ołówkiem	!	!
4G\ 4GG\	8cc#X\L 8a\	.
!	!LO:SIC:v:n=2:s=8b-	!
.	8dd\J 8b\	.
!	!LO:SIC:v:s=8b-	!
!	!LO:TX:t=P:problem=ołówkiem dopisane d	!
4c\ 4C\	8b\L	[
.	8e\J 8B-\	.
=57	=57	=57
4FFF/	4f\ 4A\	.
4A\ 4C\	8a\L 8f\	.
.	8b-\J	.
4B-\ 4C\	8bn\L 8e\	.
.	8cc\J	.
!!LO:LB:g=original
=58	=58	=58
4FF\	4dd\ 4fM\	<
4A\ 4C\	4cc\ 4f\	.
4A\ 4C\	4ff\ 4f\	[[
=59	=59	=59
!	!LO:TX:t=P:problem=ołówkiem dopisane a	!
4AAA/	4aa\ 4ff\	f
!	!LO:TX:b:t=appasionato.	!
4c#X\ 4G\	4ee\	.
!	!LO:TX:t=P:problem=ołówkiem dopisane a	!
4cn\ 4G\	4aa\ 4ee-X\	.
=60	=60	=60
!	!LO:TX:t=P:problem=usunięte f#, ołówkiem dopisane a	!
4F#X\ 4DD\	4aa\ 4ee-X\	.
!LO:TX:t=P:problem=usunięte F, ołówkiem dopisane D	!	!
4d\	8dd\L	.
.	8ff#X\J 8cc\	.
4c\ 4D\	8gg\L 8bn\	.
.	8aa\J 8a\	.
=61	=61	=61
!	!LO:TX:t=P:problem=ołówkiem dopisane g, wykreślone ee	!
4GGG/	4gg\ 4ee\	.
4Bn\ 4F\	4dd\	<
!	!LO:TX:t=P:problem=usunięte f	!
4B-X\ 4F\	4gg\ 4dd-X\	[[
=62	=62	=62
!	!LO:TX:t=P:problem=usunięte e	!
4E\ 4CC\	4gg\ 4dd-X\	.
4c\ 4E\	8cc\L	.
.	8cc\J 8b-\	.
4B-\ 4C\	8cc\L 8a\	.
.	8cc\J 8g#X\	.
=63	=63	=63
4FF\	8cc\L 8a\	p
.	8dd\J 8g#X\	.
4A\ 4C\	4.cc\ 4.a\	<
4B-\ 4C\	.	.
.	8cc\ 8g#\	[[
=64	=64	=64
4FFF/	8cc\L 8a\	.
.	8a\J 8f\	.
4A\ 4C\	4.a\ 4.f\	.
4A\ 4C#X\	.	.
.	8a\ 8e\	.
!!LO:LB:g=original
=65	=65	=65
4DD/	8a/L 8f/	.
.	8b-/J 8e/	.
!LO:TX:t=P:problem=dwudźwięk poprawiony ołówkiem	!	!
4A\ 4D\	4.a/ 4.f/	<
4G\ 4AA\	.	.
.	8a/ 8e/	[[
=66	=66	=66
4DDD/	8a/L 8f/	<
.	8f/J 8d/	.
4F\ 4AA\	4.f/ 4.d/	.
4F\ 4AA\	.	.
.	8f/ 8c#X/	[[
=67	=67	=67
4B-\ 4BB-\	8f/L 8d/ 8F/	.
.	8g/J 8c#X/ 8G/	f
4BBB-/ 4BBBB-/	4.f/ 4.d/ 4.F/	.
4B-\ 4BB-\	.	.
.	8f#X/ 8d/ 8F#X/	.
=68	=68	=68
!	!LO:TX:b:t=e	!
4Bn\ 4BBn\	8g/L 8d/ 8G/	.
.	8a/J 8c#X/ 8A/	.
!	!	!LO:TX:b:t=creſcendo:dur=6q:problem=text with extention line
4BBBn/ 4BBBBn/	4.g/ 4.d/ 4.G/	<
4B\ 4BB\	.	.
.	8g/ 8d#X/ 8G/	.
=69	=69	=69
4c\ 4C\	8g/L 8e/ 8G/	.
.	8a/J 8d#X/ 8A/	.
4CC/ 4CCC/	4.g/ 4.e/ 4.G/	.
4c\ 4C\	.	.
.	8g#X/ 8e/ 8G#X/	.
=70	=70	=70
4c#X\ 4C#X\	8a/L 8e/ 8A/	.
!	!LO:TX:b:t=sempre	!
.	8b-/J 8d#X/ 8B-/	.
4CC#X/ 4CCC#X/	4.a/ 4.e/ 4.A/	.
4c#\ 4C#\	.	.
.	8a/ 8e/ 8A/	.
=71	=71	=71
4d\ 4D\	8a/L 8f/ 8A/	.
.	8b-/J 8e/ 8B-/	.
4DD/ 4DDD/	4.a/ 4.f/ 4.A/	.
4d\ 4D\	.	.
.	8a/ 8f/ 8A/	.
!!LO:LB:g=original
=72	=72	=72
4d\ 4A\ 4D\	8cc\L 8f#X\ 8c\	.
.	8dd\J 8fn\ 8d\	.
!	!LO:SIC:n=2:v:s=4.f#	!
!	!LO:TX:b:t=al	!
4DD/ 4DDD/	4.cc\ 4.f\ 4.c\	.
4d\ 4A\ 4D\	.	.
.	8dd\ 8d\	.
=73	=73	=73
4e-X\ 4A\ 4E-X\	8cc\L 8g\ 8c\	.
.	8dd\J 8f#X\ 8d\	.
4EE-X/ 4EEE-X/	4.cc\ 4.g\ 4.c\	.
4e-\ 4A\ 4E-\	.	.
.	8dd\ 8d\	.
=74	=74	=74
4en\ 4B-\ 4En\	8cc\L 8g#X\ 8c\	.
.	8dd\J 8gn\ 8d\	.
4EEn/ 4EEEn/	8cc\L 8g#X\ 8c\	.
.	8dd\J 8gn\ 8d\	.
4e\ 4B-\ 4E\	8cc\L 8g#X\ 8c\	.
.	8dd\J 8d\	.
=75	=75	=75
8FFF/L	8cc\L 8a\ 8c\	ff
8D/J	8dd\J 8d\	.
!	!LO:TX:b:t=con somma passione	!
8AA/L 8FF/	8a\L 8f\ 8A\	.
8BB-/J	8b-\J 8B-\	.
8BBn/L 8CC/	8bn\L 8e\ 8Bn\	.
8C/J	8cc\J 8c\	.
=76	=76	=76
!LO:TX:t=P:problem=mixed beam	!	!
8FFF/L	8dd\L 8a\ 8d\	.
8E\J	8ee\J 8e\	.
8AA/L 8FF/	4cc\ 4a\ 4c\	.
8C/J	.	.
8F\L 8FF\	4ff\ 4a\ 4f\	.
8A\J	.	.
=77	=77	=77
8DDD/L	8a\L 8f\ 8A\	.
8BB-/J	8b-\J 8B-\	.
8FF/L 8DD/	8f/L 8d/ 8F/	.
8GG/J	8g/J 8G/	.
8GG#X/L 8AAA/	8g#X/L 8c#X/ 8G#X/	.
8AA/J	8a/J 8A/	.
!!LO:LB:g=original
=78	=78	=78
8DDD/L	8b-\L 8f\ 8B-\	.
8C/J	8cc\J 8c\	.
8FF/L 8DD/	4a\ 4f\ 4A\	.
8AA/J	.	.
8D/L 8DD/	4dd\ 4f\ 4d\	.
8F/J	.	.
=79	=79	=79
!LO:TX:t=P:problem=mixed beam	!	!
8CC/L	4dd\ 4e\ 4d\	.
8B-\J 8E\	.	.
8B-\L 8E\	4g/ 4c/ 4G/	.
8d\J 8B-\	.	.
8c\L 8G\	8b-/L 8e/ 8B-/	.
8C\J	8a/J 8A/	.
=80	=80	=80
8FF\L	4g#X/ 4e/ 4G#X/	.
8d\J 8F\	.	.
8c\L 8F\	4a/ 4f/ 4A/	.
8F\J 8C\	.	.
8c\L 8F\	4ff/ 4a/ 4f/	.
8F\J 8C\	.	.
=81	=81	=81
8EE\L	4ff\ 4g#X\ 4f\	.
8d\J 8G#X\	.	.
8d\L 8G#\	4bn/ 4e/ 4Bn/	.
8f\J 8d\	.	.
8e\L 8Bn\	8dd\L 8g#\ 8d\	.
8E\J	8cc\J 8c\	.
=82	=82	=82
8AA\L	4bn\ 4g#X\ 4Bn\	.
8f\J 8A\	.	.
8e\L 8A\	4cc\ 4a\ 4c\	>
8A\J 8E\	.	.
8e\L 8A\	[4ccc\ [4aa\ [4cc\	]
8A\J 8E\	.	.
=83	=83	=83
!LO:TX:t=P:problem=mixed beam	!	!
8FF\L	8ccc\]L 8aa\] 8cc\]	pp
8d\J	8ddd\J 8dd\	.
8A\L 8F\	8aa\L 8ff\ 8a\	.
8B-\J	8bb-\J 8b-\	.
8Bn\L 8C\	8bbn\L 8ee\ 8bn\	.
8c\J	8ccc\J 8cc\	.
!!LO:LB:g=original
=84	=84	=84
8DD\L	8aa\L 8ff\ 8a\	.
8B-\J	8bb-\J 8b-\	.
8F\L 8D\	8ff\L 8dd\ 8f\	.
8G\J	8gg\J 8g\	.
8G#X\L 8AA\	8gg#X\L 8cc#X\ 8g#X\	.
8A\J	8aa\J 8a\	.
=85	=85	=85
8D\L 8BB-\	8dd\L 8b-\ 8d\	.
8E-X\J	8ee-X\J 8e-X\	.
8En\L 8FF\	8een\L 8a\ 8en\	.
8F\J	8ff\J 8f\	.
32DDD'^^</	8ff\L 8dd\ 8f\	.
32r	.	.
16r	.	.
8r	8gg\J 8g\	.
=86	=86	=86
8G#X\L 8AA\	8gg#X\L 8cc#X\ 8g#X\	.
8A\J	8aa\J 8a\	.
32FFF#X'^^</	8aa\L 8ff#X\ 8a\	.
32r	.	.
16r	.	.
8r	8bb-\J 8b-\	.
8B#X\L 8C#X\	8bb#X\L 8ee#X\ 8b#X\	.
8c#X\J	8ccc#X\J 8cc#\	.
=87||	=87||	=87||
*k[b-e-a-d-]	*k[b-e-a-d-]	*
32DDD-'^^</	8ccc\L 8cc\	<
32r	.	.
16r	.	.
8r	8ddd-\J 8dd-\	.
8c\L	8ccc\L 8cc\	.
8d-\J	8ddd-\J 8dd-\	.
8c\L 8C\	8ccc\L 8cc\	.
8d-\J 8D-\	8ddd-\J 8dd-\	.
=88	=88	=88
*tremolo	*tremolo	*
32BBBn/LLL	32a-/LLL	f
32FF/	32f/	.
32BBB/	32a-/	.
32FF/	32f/	.
32BBB/	32a-/	.
32FF/	32f/	.
32BBB/	32a-/	.
32FF/	32f/	.
32BBB/	32a-/	.
32FF/	32f/	.
32BBB/	32a-/	.
32FF/	32f/	.
32BBB/	32a-/	.
32FF/	32f/	.
32BBB/	32a-/	.
32FF/	32f/	.
32BBB/	32a-/	.
32FF/	32f/	.
32BBB/	32a-/	.
32FF/	32f/	.
32BBB/	32a-/	.
32FF/	32f/	.
32BBB/	32a-/	.
32FF/JJJ	32f/JJJ	.
=89	=89	=89
4r	8ccc\L 8cc\	<
.	8ddd-\J 8dd-\	.
8c\L	8ccc\L 8cc\	.
8d-\J	8ddd-\J 8dd-\	.
8c\L 8C\	8ccc\L 8cc\	.
8d-\J 8D-\	8ddd-\J 8dd-\	.
!!LO:PB:g=original
=90	=90	=90
32BBB-/LLL	32g/LLL	f
32EEn/	32en/	.
32BBB-/	32g/	.
32EE/	32e/	.
32BBB-/	32g/	.
32EE/	32e/	.
32BBB-/	32g/	.
32EE/	32e/	.
32BBB-/	32g/	.
32EE/	32e/	.
32BBB-/	32g/	.
32EE/	32e/	.
32BBB-/	32g/	.
32EE/	32e/	.
32BBB-/	32g/	.
32EE/	32e/	.
32BBB-/	32g/	.
32EE/	32e/	.
32BBB-/	32g/	.
32EE/	32e/	.
32BBB-/	32g/	.
32EE/	32e/	.
32BBB-/	32g/	.
32EE/JJJ	32e/JJJ	.
*Xtremolo	*Xtremolo	*
=91	=91	=91
8c\L 8C\	8ccc\L 8cc^^\	.
8d-\J 8D-\	8ddd-\J 8dd-^^\	.
32BBB-/LLL	32g/LLL	.
32EEn/	32en/	.
32BBB-/	32g/	.
32EE/	32e/	.
!	!	!LO:TX:b:t=creſcendo:dur=6q:problem=text with extention line
32BBBn/	32a-/	<
32FF/	32f/	.
32BBB/	32a-/	.
32FF/JJJ	32f/JJJ	.
8c\L 8C\	8ccc\L 8cc^^\	.
8d-\J 8D-\	8ddd-\J 8dd-^^\	.
=92	=92	=92
32CC/LLL	32an/LLL	.
32FF#X/	32f#X/	.
32CC/	32a/	.
32FF#/	32f#/	.
32DD-/	32b-/	.
32GG/	32g/	.
32DD-/	32b-/	.
32GG/JJJ	32g/JJJ	<
8c\L 8C\	8ccc\L 8cc^^\	[
8d-\J 8D-\	8ddd-\J 8dd-^^\	.
32CC/LLL	32a/LLL	.
32FF#/	32f#/	.
32CC/	32a/	.
32FF#/	32f#/	.
32BBBn/	32a-X/	.
32FFn/	32fn/	.
32BBB/	32a-/	.
32FF/JJJ	32f/JJJ	.
=93	=93	=93
32BBB-/LLL	32g/LLL	<
32EEn/	32en/	.
32BBB-/	32g/	.
32EE/	32e/	.
32BBBn/	32a-/	.
32FF/	32f/	.
32BBB/	32a-/	.
32FF/JJJ	32f/JJJ	.
32CC/LLL	32an/LLL	.
32FF#X/	32f#X/	.
32CC/	32a/	.
32FF#/	32f#/	.
32DD-/	32b-/	.
32GG/	32g/	[ >
32DD-/	32b-/	.
32GG/JJJ	32g/JJJ	.
32CC/LLL	32a/LLL	.
32FF#/	32f#/	.
32CC/	32a/	.
32FF#/	32f#/	.
32BBB/	32a-X/	.
32FFn/	32fn/	.
32BBB/	32a-/	.
32FF/JJJ	32f/JJJ	]]
!!LO:LB:g=original
=94	=94	=94
32CC/LLL	32an/LLL	<
32FF#X/	32f#X/	.
32CC/	32a/	.
32FF#/	32f#/	.
32DD-/	32b-/	.
32GG/	32g/	.
32DD-/	32b-/	.
32GG/JJJ	32g/JJJ	.
32DDn/LLL	32bn/LLL	.
32GG#X/	32g#X/	.
32DD/	32b/	.
32GG#/	32g#/	[
32EE-/	32cc/	.
32AAn/	32a/	.
32EE-/	32cc/	>
32AA/JJJ	32a/JJJ	.
32DD/LLL	32b/LLL	.
32GG#/	32g#/	.
32DD/	32b/	.
32GG#/	32g#/	.
32DD-X/	32b-X/	.
32GGn/	32gn/	.
32DD-/	32b-/	.
32GG/JJJ	32g/JJJ	]]
=95	=95	=95
32DDn/LLL	32bn\LLL	<
32GG#X/	32g#X\	.
32DD/	32b\	.
32GG#/	32g#\	.
32DD/	32cc\	.
32AAn/	32an\	.
32DD/	32cc\	.
32AA/JJJ	32a\JJJ	.
32EEn/LLL	32dd-\LLL	.
32BB-/	32b-X\	.
32EE/	32dd-\	.
32BB-/	32b-\	.
32FF/	32ddn\	.
32BBn/	32bn\	.
32FF/	32dd\	[
32BB/JJJ	32b\JJJ	.
32EE/LLL	32dd-X\LLL	>
!	!LO:SIC:v:s=32b-	!
32BB-X/	32b\	.
32EE/	32dd-\	.
!	!LO:SIC:v:s=32b-	!
32BB-/	32b\	.
32EE-X/	32cc\	.
32AA/	32a\	.
32EE-/	32cc\	.
32AA/JJJ	32a\JJJ	]]
=96	=96	=96
32EEn/LLL	32dd-\LLL	<
32BB-/	32b-\	.
32EE/	32dd-\	.
32BB-/	32b-\	.
32GG/	32een\	.
32D-/	32dd-\	.
32GG/	32ee\	.
32D-/JJJ	32dd-\JJJ	.
32BB-/LLL	32gg\LLL	.
32En/	32ee\	.
32BB-/	32gg\	.
32E/	32ee\	.
32D-/	32bb-\	.
32G/	32gg\	.
32D-/	32bb-\	[
32G/JJJ	32gg\JJJ	.
32BB-/LLL	32gg\LLL	>
32E/	32ee\	.
32BB-/	32gg\	.
32E/	32ee\	.
32GG/	32ee\	.
32D-/	32dd-\	.
32GG/	32ee\	]
32D-/JJJ	32dd-\JJJ	.
!!LO:LB:g=original
=97	=97	=97
32BB-\LLL	32gg\LLL	<
32En\	32een\	.
32BB-\	32gg\	.
32E\	32ee\	.
32D-\	32bb-\	.
32G\	32gg\	.
32D-\	32bb-\	.
32G\JJJ	32gg\JJJ	.
32E\LLL	32ddd-\LLL	.
32B-\	32bb-\	.
32E\	32ddd-\	.
32B-\	32bb-\	.
32G\	32eeen\	[
32d-\	32ddd-\	.
32G\	32eee\	>
32d-\JJJ	32ddd-\JJJ	.
32E\LLL	32ddd-\LLL	.
32B-\	32bb-\	.
32E\	32ddd-\	.
32B-\	32bb-\	.
32D-\	32bb-\	.
32G\	32gg\	.
32D-\	32bb-\	.
32G\JJJ	32gg\JJJ	]]
=98	=98	=98
32En\LLL	32ddd-\LLL	.
32B-\	32bb-\	.
32E\	32ddd-\	.
32B-\	32bb-\	.
32G\	32eeen\	<
32d-\	32ddd-\	.
32G\	32eee\	.
32d-\JJJ	32ddd-\JJJ	.
*	*8va	*
32B-\LLL	32ggg\LLL	.
32en\	32eeen\	.
32B-\	32ggg\	.
32e\JJJ	32eee\	.
*clefG2	*	*
32d-/LLL	32bbb-\	.
32g/	32ggg\	.
32d-/	32bbb-\	.
32g/JJJ	32ggg\JJJ	.
32en/LLL	32dddd-\LLL	.
32b-/	32bbb-\	.
32e/	32dddd-\	.
32b-/	32bbb-\	.
32g/	32dddd-\	.
32dd-/	32bbb-\	.
32g/	32dddd-\	.
32dd-/JJJ	32bbb-\JJJ	.
=99	=99	=99
*	*tremolo	*
*	*2\right	*
32b-\LLL	32dddd-\LLL	f
32een\	32bbb-\	.
32b-\	32dddd-\	.
32ee\	32bbb-\	.
32dd-\	32dddd-\	.
32gg\	32bbb-\	.
32dd-\	32dddd-\	.
32gg\JJJ	32bbb-\	.
32ee\LLL	32dddd-\	.
32bb-\	32bbb-\	.
32ee\	32dddd-\	.
32bb-\	32bbb-\	.
32gg\	32dddd-\	.
32ddd-\	32bbb-\	.
32gg\	32dddd-\	.
32ddd-\JJJ	32bbb-\	.
32bb-\LLL	32dddd-\	.
32eeen\	32bbb-\	.
32bb-\	32dddd-\	.
32eee\	32bbb-\	.
32ddd-\	32dddd-\	.
32ggg\	32bbb-\	.
32ddd-\	32dddd-\	.
32ggg\JJJ	32bbb-\JJJ	.
!!LO:LB:g=original
=100	=100	=100
*tremolo	*	*
32eeen\LLL	32dddd-\LLL	ff
32ggg\	32bbb-\	.
32eee\	32dddd-\	.
32ggg\	32bbb-\	.
32eee\	32dddd-\	.
32ggg\	32bbb-\	.
32eee\	32dddd-\	.
32ggg\	32bbb-\	.
32eee\	32dddd-\	.
32ggg\	32bbb-\	.
32eee\	32dddd-\	.
32ggg\	32bbb-\	.
32eee\	32dddd-\	.
32ggg\	32bbb-\	.
32eee\	32dddd-\	.
32ggg\	32bbb-\	.
32eee\	32dddd-\	.
32ggg\	32bbb-\	.
32eee\	32dddd-\	.
32ggg\	32bbb-\	.
32eee\	32dddd-\	.
32ggg\	32bbb-\	.
32eee\	32dddd-\	.
32ggg\JJJ	32bbb-\JJJ	.
*Xtremolo	*Xtremolo	*
=101	=101	=101
!LO:TX:t=P:problem=mixed beam	!	!
!LO:TUP:a:problem=klamra łukowa	!	!
12eeen\L	12dddd-\	.
*	*X8va	*
12dd-/ 12d-/	6r	.
12dd-/J 12d-/	.	.
*Xtuplet	*Xtuplet	*
12r	12ddd-\ 12dd-\	.
12dd-/L 12d-/	6r	.
12dd-/J 12d-/	.	.
12r	12ddd-\ 12dd-\	.
12dd-/L 12d-/	6r	.
12dd-/J 12d-/	.	.
=102	=102	=102
*tremolo	*tremolo	*
*	*8va	*
32eeen\LLL	32dddd-\LLL	pp
32ggg\	32bbb-\	.
32eee\	32dddd-\	.
32ggg\	32bbb-\	.
32eee\	32dddd-\	.
32ggg\	32bbb-\	.
32eee\	32dddd-\	.
32ggg\	32bbb-\	.
32eee\	32dddd-\	.
32ggg\	32bbb-\	.
32eee\	32dddd-\	.
32ggg\	32bbb-\	.
32eee\	32dddd-\	.
32ggg\	32bbb-\	.
32eee\	32dddd-\	.
32ggg\	32bbb-\	.
32eee\	32dddd-\	.
32ggg\	32bbb-\	.
32eee\	32dddd-\	.
32ggg\	32bbb-\	.
32eee\	32dddd-\	.
32ggg\	32bbb-\	.
32eee\	32dddd-\	.
32ggg\JJJ	32bbb-\JJJ	.
*Xtremolo	*Xtremolo	*
=103	=103	=103
*tuplet	*	*
!LO:TX:t=P:problem=mixed beam	!	!
!LO:TUP:a:problem=klamra łukowa	!	!
12eeen\L	12dddd-\	.
*	*X8va	*
12dd-\ 12d-\	6r	.
12dd-\J 12d-\	.	.
*Xtuplet	*	*
12r	12ddd-\ 12dd-\	.
12dd-/L 12d-/	6r	.
12dd-/J 12d-/	.	.
12r	12ddd-\ 12dd-\	.
!	!LO:TX:t=P:problem=znak segno na kresce taktowej	!
12dd-/L 12d-/	6r	.
12dd-/J 12d-/	.	.
!LO:CL:ed	!	!
*clefF4	*	*
=104||	=104||	=104||
*k[b-e-a-d-g-]	*k[b-e-a-d-g-]	*
!	!LO:TUP:a:problem=klamra łukowa	!
!LO:TX:t=P:problem=brak klucza	!LO:TX:b:t=risvegliato	!
4f\ 4d-\	12ddd-\L 12dd-\	.
.	12a-\	.
.	12ddd-\J 12dd-\	pp
4e-\ 4A-\	12ccc\L 12cc\	.
.	12a-\	.
.	12ccc\J 12cc\	.
4e-\ 4c-X\	12ccc-X\L 12cc-X\	.
.	12g-\	.
.	12ccc-\J 12cc-\	.
!!LO:LB:g=original
=105	=105	=105
4d-\ 4G-\	12bb-\L 12b-\	.
.	12g-\	.
.	12bb-\J 12b-\	.
4d-\ 4B--\	12bb--\L 12b--\	.
.	12f-X\	.
.	12bb--\J 12b--\	.
4c-X\ 4F-X\	12aa-\L 12a-\	.
.	12f-\	.
.	12aa-\J 12a-\	.
=106	=106	=106
4B-\ 4Fn\	12aa-\L 12a-\	.
.	12dn\	.
.	12aa-\J 12a-\	.
4cn\ 4E-\	12aa-\L 12a-\	.
.	12e-\	.
.	12aa-\J 12a-\	.
4d-\ 4E-\	12ccc\L 12cc\	.
.	12gn\	.
.	12bb-\J 12b-\	.
=107	=107	=107
4c\ 4AA-\	12aa-\L 12a-\	.
.	12e-\	.
.	12aa-\J 12a-\	.
4c-X\ 4A-\	12aa-\L 12a-\	.
.	12f-X\	.
.	12aa-\J 12a-\	.
4cn\ 4A-\	12aa-\L 12a-\	.
.	12e-\	.
.	12aa-\J 12a-\	.
=108	=108	=108
4f\ 4d-\	12ddd-\L 12dd-\	.
.	12a-\	.
.	12ddd-\J 12dd-\	.
4e-\ 4A-\	12ccc\L 12cc\	.
.	12a-\	.
.	12ccc\J 12cc\	.
4e-\ 4c-X\	12ccc-X\L 12cc-X\	.
.	12g-\	.
.	12ccc-\J 12cc-\	.
=109	=109	=109
4d-\ 4G-\	12bb-\L 12b-\	.
.	12g-\	.
.	12bb-\J 12b-\	.
4d-\ 4B--\	12bb--\L 12b--\	.
.	12f-X\	.
.	12bb--\J 12b--\	.
!LO:TX:t=P:problem=usunięty znak d-	!	!
4d-\ 4F-X\	12aa-\L 12a-\	.
.	12f-\	.
.	12aa-\J 12a-\	.
!!LO:LB:g=original
=110	=110	=110
4d-\ 4BB--\	12ggn\L 12gn\	.
.	12f-X\	.
.	12gg\J 12g\	.
4d-\ 4AA-\	12aa-\L 12a-\	.
.	12fn\	.
.	12aa-\J 12a-\	.
4g-\ 4A-\	12fff\L 12ff\	.
.	12cc\	.
.	12eee-\J 12ee-\	.
=111	=111	=111
6f\ 6D-\	12ddd-\L 12dd-\	.
.	12a-\	.
12r	12ddd-\J 12dd-\	.
*clefG2	*	*
12dd-/L 12d-/	6r	.
12A-/	.	.
12dd-/J 12d-/	12r	.
*clefF4	*	*
12d-\L 12D-\	6r	.
12AA-\	.	.
12d-\J 12D-\	12r	.
=112	=112	=112
12A-/L 12AA-/	6a-/ 6c/ 6A-/	.
12AA-/ 12AAA-/	.	.
12AA-/J 12AAA-/	12r	ff
12Gn/L 12GGn/	6cc/ 6a-/ 6c/	.
12GG/ 12GGGn/	.	.
12GG/J 12GGG/	12r	.
12G-X/L 12GG-X/	6ee-/ 6a-/ 6e-/	.
12GG-/ 12GGG-X/	.	.
!	!LO:TX:t=P:problem=brak 8r	!
12GG-/J 12GGG-/	12ryy	.
=113	=113	=113
12F/L 12FF/	6a-/ 6A-/ 6F/	.
12FF/ 12FFF/	.	.
12FF/J 12FFF/	12r	.
12En/L 12EEn/	6a-/ 6c/ 6A-/	.
12EE/ 12EEEn/	.	.
12EE/J 12EEE/	12r	.
12E-X/L 12EE-X/	6cc/ 6a-/ 6c/	.
12EE-/ 12EEE-X/	.	.
12EE-/J 12EEE-/	12r	.
=114	=114	=114
12Dn/L 12DDn/	6f/ 6B-/ 6F/	.
12DD/ 12DDDn/	.	.
12DD/J 12DDD/	12r	.
12E-/L 12EE-/	6b-/ 6f/ 6B-/	.
12EE-/ 12EEE-/	.	.
12EE-/J 12EEE-/	12r	.
12e-/L 12E-/	8g-/L 8e-/ 8G-/	.
12E-/ 12EE-/	.	.
.	8d-/J	.
12E-/J 12EE-/	.	.
!!LO:LB:g=original
=115	=115	=115
12A-/L 12AA-/	6a-/ 6c/ 6A-/	.
12AA-/ 12AAA-/	.	.
12AA-/J 12AAA-/	12r	.
12r	12a-/ 12A-/	.
12A-/L 12AA-/	6r	.
12A-/J 12AA-/	.	.
12r	12aa-\ 12a-\	.
12a-\L 12A-\	6r	.
12a-\J 12A-\	.	.
=116	=116	=116
12a-\L 12A-\	6aa-\ 6cc\ 6a-\	<
12A-\ 12AA-\	.	.
12a-\J 12A-\	12aa-\ 12cc\ 12a-\	.
12gn\L 12Gn\	6ccc\ 6aa-\ 6cc\	.
12G\ 12GGn\	.	.
12g\J 12G\	12ccc\ 12aa-\ 12cc\	.
12g-X\L 12G-X\	6eee-\ 6aa-\ 6ee-\	.
12G-\ 12GG-X\	.	.
12g-\J 12G-\	12eee-\ 12aa-\ 12ee-\	[[
=117	=117	=117
12f\L 12F\	6ff\ 6a-\ 6f\	<
12F\ 12FF\	.	.
12f\J 12F\	12ff\ 12a-\ 12f\	.
12en\L 12En\	6aa-\ 6cc\ 6a-\	.
12E\ 12EEn\	.	.
12e\J 12E\	12aa-\ 12cc\ 12a-\	[
12e-X\L 12E-X\	6ccc\ 6aa-\ 6cc\	.
12E-\ 12EE-X\	.	.
12e-\J 12E-\	12ccc\ 12aa-\ 12cc\	.
=118	=118	=118
12dn/L 12Dn/	6ff\ 6b-\ 6f\	.
12D/ 12DDn/	.	.
12d/J 12D/	12ff\ 12b-\ 12f\	.
12d-X/L 12D-X/	6bb-\ 6ff\ 6b-\	.
12D-/ 12DD-X/	.	.
12d-/J 12D-/	12bb-\ 12ff\ 12b-\	.
12e-/L 12E-/	6ggn\ 6ee-\ 6gn\	.
12E-/ 12EE-/	.	.
12e-/J 12E-/	12dd-\	.
=119	=119	=119
12A-/L 12AA-/	6aa-\ 6cc\ 6a-\	f
12AA-/ 12AAA-/	.	.
12A-/J 12AA-/	12r	.
12r	12a-/ 12A-/	<
12A-/ 12AA-/	12r	.
!LO:N:vis=6	!LO:TX:t=P:problem=mixed beam	!
12r	12a-/L 12A-/	.
12ryy	12aa-\J 12a-\	.
12a-\ 12A-\	12r	.
12r	12aa-\ 12a-\	[[
!!LO:LB:g=original
=120	=120	=120
4f\ 4d-\	12ddd-\L 12dd-\	pp
.	12a-\	.
.	12ddd-\J 12dd-\	.
4e-\ 4A-\	12ccc\L 12cc\	.
.	12a-\	.
.	12ccc\J 12cc\	.
4e-\ 4c-X\	12ccc-X\L 12cc-X\	.
.	12g-\	.
.	12ccc-\J 12cc-\	.
=121	=121	=121
4d-\ 4G-\	12bb-\L 12b-\	.
.	12g-\	.
.	12bb-\J 12b-\	.
4d-\ 4B--\	12bb--\L 12b--\	.
.	12f-X\	.
.	12bb--\J 12b--\	.
4c-X\ 4F-X\	12aa-\L 12a-\	.
.	12f-\	.
.	12aa-\J 12a-\	.
=122	=122	=122
4B-\ 4Fn\	12aa-\L 12a-\	.
.	12dn\	.
.	12aa-\J 12a-\	.
4cn\ 4E-\	12aa-\L 12a-\	.
.	12e-\	.
.	12aa-\J 12a-\	.
4d-\ 4E-\	12ccc\L 12cc\	.
.	12gn\	.
.	12ccc\J 12cc\	.
=123	=123	=123
4c\ 4AA-\	12aa-\L 12a-\	.
.	12e-\	.
.	12aa-\J 12a-\	.
4c-X\ 4A-\	12aa-\L 12a-\	.
.	12f-X\	.
.	12aa-\J 12a-\	.
4cn\ 4A-\	12aa-\L 12a-\	.
.	12e-\	.
.	12aa-\J 12a-\	.
=124	=124	=124
4f\ 4d-\	12ddd-\L 12dd-\	.
.	12a-\	.
.	12ddd-\J 12dd-\	.
4e-\ 4A-\	12ccc\L 12cc\	.
.	12a-\	.
.	12ccc\J 12cc\	.
4e-\ 4c-X\	12ccc-X\L 12cc-X\	.
.	12g-\	.
.	12ccc-\J 12cc-\	.
=125	=125	=125
4d-\ 4G-\	12bb-\L 12b-\	.
.	12g-\	.
.	12bb-\J 12b-\	.
8B-\L	8bb-\L 8b-\	<
8c-X\J	8ccc-X\J 8cc-X\	.
8cn\L	8cccn\L 8ccn\	.
8d-\J	8ddd-\J 8dd-\	[[
!!LO:PB:g=original
=126	=126	=126
*clefG2	*	*
4b-/ 4g-/	12ggg-\L 12gg-\	pp
.	12dd-\	.
.	12ggg-\J 12gg-\	.
4a-/ 4d-/	12fff\L 12ff\	.
.	12dd-\	.
.	12fff\J 12ff\	.
4a-/ 4f-X/	12fff-X\L 12ff-X\	.
.	12cc-X\	.
.	12fff-\J 12ff-\	.
=127	=127	=127
4g-/ 4c-X/	12eee-\L 12ee-\	.
.	12cc-X\	.
.	12eee-\J 12ee-\	.
8e-/L	8eee-\L 8ee-\	.
8f-X/J	8fff-X\J 8ff-X\	.
8fn/L	8fffn\L 8ffn\	.
8g-/J	8ggg-\J 8gg-\	.
*clefF4	*	*
=128	=128	=128
8C-X/L 8CC-X/	4eee-\ 4ee-\	<
8G-/J 8GG-/	.	.
8c-X\L 8C-\	8ee-\L 8cc-X\	.
8G-\J 8GG-\	8b-\J	.
8c-\L 8C-\	4ee-\ 4cc-\ 4e-\	[[
8A--\J 8AA--\	.	.
=129	=129	=129
4G-\ 4GG-\	12eee-\L 12ee-\	>
.	12cc-X\	.
.	12eee-\J 12ee-\	.
8e-\L	8eee-\L 8ee-\	.
8f-X\J	8fff-X\J 8ff-X\	.
8fn\L	8fffn\L 8ffn\	]
8g-\J	8ggg-\J 8gg-\	.
=130	=130	=130
8C-X/L 8CC-X/	4eee-\ 4ee-\	<
8G-/J 8GG-/	.	.
8c-X\L 8C-\	8ee-\L 8cc-X\	.
8G-\J 8GG-\	8b-\J	.
8c-\L 8C-\	4ee-/ 4cc-/ 4e-/	[[
8A--\J 8AA--\	.	.
=131	=131	=131
4G-\ 4GG-\	12eee-\L 12ee-\	.
.	12cc-X\	.
.	12eee-\J 12ee-\	.
8e-\L	8eee-\L 8ee-\	>
8f-X\J	8fff-X\J 8ff-X\	.
8fn\L	8fffn\L 8ffn\	.
8g-\J	8ggg-\J 8gg-\	]]
!!LO:LB:g=original
=132	=132	=132
!	!	!LO:TX:b:t=creſcendo:dur=6q:problem=text with extention line
8C-X/L 8CC-X/	4eee-\ 4ee-\	<
8G-/J 8GG-/	.	.
8c-X\L 8C-\	8ee-\L 8cc-X\	.
8G-\J 8GG-\	8b-\J	.
8c-\L 8C-\	4ee-\ 4cc-\ 4e-\	.
8A--\J 8AA--\	.	.
=133	=133	=133
*	*8va	*
8C-X/L 8CC-X/	4eeee-\ 4eee-\	.
8A--/J 8AA--/	.	.
*	*X8va	*
8c-X\L 8C-\	8ee-\L 8cc-X\	.
8A-\J 8AA-\	8b-\J	.
8c-\L 8C-\	4ee-\ 4cc-\ 4e-\	.
8B--\J 8BB--\	.	.
=134	=134	=134
*	*8va	*
!	!LO:TX:b:t=furioso.	!
32B-\LLL 32BB-\	4eeee-\ 4eee-\	.
32An\	.	.
32A-X\	.	.
32Gn\	.	.
32G-X\	.	.
32Fn\	.	.
32F-X\JJJ	.	.
32E-X\LLL	.	.
*	*X8va	*
32Dn\	2ee-\ 2b-\ 2gn\ 2e-\	.
32D-X\	.	.
32C\	.	.
32C-X\	.	.
32BB-X\	.	.
32AAn\	.	.
32AA-X\JJJ	.	.
32GGn/LLL	.	.
!LO:TX:t=P:problem=32FF# poprawione na 32GG-	!	!
32GG-X/	.	.
32FFn/	.	.
!LO:TX:t=P:problem=32EE- poprawione na 32FF-	!	!
32FF-X/	.	.
32EE-X/	.	.
32DDn/	.	.
32DD-X/	.	.
32CC/	.	.
32BBBn/JJJ	.	.
=135	=135	=135
*tremolo	*	*
32BBB-/LLL	4eee-\ 4ee-\	ff
32AAAn/	.	.
32BBB-/	.	.
32AAA/	.	.
32BBB-/	.	.
32AAA/	.	.
32BBB-/	.	.
32AAA/JJJ	.	.
*	*clefF4	*
32BBB-/LLL	2e-\ 2B-\ 2Gn\ 2E-\	.
32EEE-/	.	.
32BBB-/	.	.
32EEE-/	.	.
32BBB-/	.	.
32EEE-/	.	.
32BBB-/	.	.
32EEE-/	.	.
32BBB-/	.	.
32EEE-/	.	.
32BBB-/	.	.
32EEE-/	.	.
32BBB-/	.	.
32EEE-/	.	.
32BBB-/	.	.
32EEE-/JJJ	.	.
=136	=136	=136
!	!LO:TX:b:t=tempestoso.	!
32BBB-/LLL	32BB-/LLL	.
32CC-X/	32C-X/	.
32CCn/	32Cn/	.
32DD-/	32D-/	.
32CC/	32C/	.
32CC-X/	32C-X/	.
32BBB-X/	32BB-X/	.
32AAAn/JJJ	32AAn/JJJ	.
*	*tremolo	*
32BBB-/LLL	32BB-/LLL	.
32EEE-/	32EE-/	.
32BBB-/	32BB-/	.
32EEE-/	32EE-/	.
32BBB-/	32BB-/	.
32EEE-/	32EE-/	.
32BBB-/	32BB-/	.
32EEE-/	32EE-/	.
32BBB-/	32BB-/	.
32EEE-/	32EE-/	.
32BBB-/	32BB-/	.
32EEE-/	32EE-/	.
32BBB-/	32BB-/	.
32EEE-/	32EE-/	.
32BBB-/	32BB-/	.
32EEE-/JJJ	32EE-/JJJ	.
!!LO:LB:g=original
=137	=137	=137
!	!LO:TX:t=P:problem=klucz poprawiony na basowy, znaki błędnie dla klucza wiolinowego	!
32BBB-/LLL	32BB-\LLL	.
!LO:TX:t=P:problem=32BBBn poprawione na 32CC-	!LO:TX:t=P:problem=32BBn poprawione na 32C-	!
32CC-X/	32C-X\	.
32CCn/	32Cn\	.
32DD-/	32D-\	.
32DD-/	32D-\	.
32DDn/	32Dn\	.
32EE-/	32E-\	.
!LO:TX:t=P:problem=32EEn poprawione na 32FF-	!LO:TX:t=P:problem=32En poprawione na 32F-	!
32FF-X/JJJ	32F-X\JJJ	.
32EE-X/LLL	32E-X\LLL	.
32BBB-X/	32BB-X\	.
32EE-/	32E-\	.
32BBB-/	32BB-\	.
32EE-/	32E-\	.
32BBB-/	32BB-\	.
32EE-/	32E-\	.
32BBB-/JJJ	32BB-\JJJ	.
32BBB-/LLL	32BB-\LLL	.
!	!LO:TX:t=P:problem=32BBn poprawione na 32C-	!
32CC-X/	32C-X\	.
32CCn/	32Cn\	.
!LO:SIC:v:s=32DD-	!LO:SIC:v:s=32D-	!
32DD/	32D\	.
!LO:SIC:v:s=32DD-	!LO:SIC:v:s=32D-	!
32DD/	32D\	.
32DDn/	32Dn\	.
32EE-/	32E-\	.
32FF-X/JJJ	32F-X\JJJ	.
=138	=138	=138
32EE-/LLL	32E-\LLL	.
32BBB-/	32BB-\	.
32EE-/	32E-\	.
32BBB-/	32BB-\	.
32EE-/	32E-\	.
32BBB-/	32BB-\	.
32EE-/	32E-\	.
32BBB-/JJJ	32BB-\JJJ	.
*Xtremolo	*Xtremolo	*
32BBB-/LLL	32BB-\LLL	.
32CC-X/	32C-X\	.
32CCn/	32Cn\	.
32DD-/	32D-\	.
32DD-/	32D-\	.
32DDn/	32Dn\	.
32EE-/	32E-\	.
!	!	!LO:HP:t=cresc. molto.
32FF-X/	32F-X\	<
32FF-/	32F-\	.
32FFn/	32Fn\	.
32GG-X/	32G-X\	.
32GGn/	32Gn\	.
32GG/	32G\	.
32AA-/	32A-\	.
32AAn/	32An\	.
32BB-/JJJ	32B-\JJJ	.
*	*clefG2	*
=139	=139	=139
32BB-\LLL	32B-/LLL	.
32C-X\	32c-X/	.
32Cn\	32cn/	.
32D-\	32d-/	.
32D-\	32d-/	.
32Dn\	32dn/	.
32E-\	32e-/	.
32F-X\JJJ	32f-X/JJJ	.
32F-\LLL	32f-/LLL	.
32Fn\	32fn/	.
32G-\	32g-X/	.
32Gn\	32gn/	.
32G\	32g/	.
32A-\	32a-/	.
32An\	32an/	.
32B-\JJJ	32b-/JJJ	.
32B-\LLL	32b-/LLL	.
32c-X\	32cc-X/	.
32cn\	32ccn/	.
32d-\	32dd-/JJJ	.
32d-\	32dd-\LLL	.
32dn\	32ddn\	.
32e-\	32ee-\	.
32f-X\JJJ	32ff-X\JJJ	.
!!LO:LB:g=original
=140	=140	=140
32e-\LLL 32E-\	4eee-\ 4ee-\	.
32dn\	.	.
32d-X\	.	.
32c\	.	.
32c-X\	.	.
32B-\	.	.
32An\	.	.
32A-X\	.	.
!	!LO:TX:b:t=marcatiſſimo.	!
32Gn\	8ee-\L 8b-\ 8gn\	.
32G-X\	.	.
32F\	.	.
32F-X\	.	.
32E-\	8ee-\ 8b-\ 8g\	.
32Dn\	.	.
32D-X\	.	.
32C\	.	.
32C-X\	8ee-\ 8b-\ 8g\	.
32BB-\	.	.
32AAn\	.	.
32AA-X\JJJ	.	.
32GGn/LLL	8ee-\J 8b-\ 8g\	.
32GG-X/	.	.
32FF/	.	.
32FF-X/JJJ	.	.
=141	=141	=141
32EE-/LLL	4ee-\ 4b-\ 4a-\	.
32FF-X/	.	.
32AA-/	.	.
32BB-/	.	.
32AA-/	.	.
32BB-/	.	.
32D-/	.	.
32F-X/JJJ	.	.
32BB-\LLL	8bb-\L 8dd-\ 8a-\	.
32D-\	.	.
32F-\	.	.
32A-\	.	.
32D-\	8bb-\ 8dd-\ 8a-\	.
32F-\	.	.
32A-\	.	.
32B-\JJJ	.	.
32F-\LLL	8bb-\ 8dd-\ 8a-\	.
32A-\	.	.
32B-\	.	.
32d-\	.	.
32A-\	8bb-\J 8dd-\ 8a-\	.
32B-\	.	.
32d-\	.	.
32f-X\JJJ	.	.
=142	=142	=142
32e-\LLL 32E-\	4eee-\ 4bb-\ 4ee-\ 4gn\	.
32dn\	.	.
32d-X\	.	.
32c\	.	.
32c-X\	.	.
32B-\	.	.
32An\	.	.
32A-X\	.	.
32Gn\	8ee-\L 8b-\ 8g\	.
32G-X\	.	.
32F\	.	.
32F-X\	.	.
32E-\	8ee-\ 8b-\ 8g\	.
32Dn\	.	.
32D-X\	.	.
32C\JJJ	.	.
32C-X/LLL	8ee-\ 8b-\ 8g\	.
32BB-/	.	.
32AAn/	.	.
32AA-X/	.	.
32GGn/	8ee-\J 8b-\ 8g\	.
32GG-X/	.	.
32FF/	.	.
32FF-X/JJJ	.	.
!!LO:LB:g=original
=143	=143	=143
32EE-/LLL	4ee-\ 4b-\ 4a-\	.
32FF-X/	.	.
32AA-/	.	.
32BB-/	.	.
32AA-/	.	.
32BB-/	.	.
32D-/	.	.
32F-X/JJJ	.	.
32BB-\LLL	8bb-\L 8dd-\ 8a-\	.
32D-\	.	.
32F-\	.	.
32A-\	.	.
32D-\	8bb-\ 8dd-\ 8a-\	.
32F-\	.	.
32A-\	.	.
32B-\JJJ	.	.
32F-\LLL	8bb-\ 8dd-\ 8a-\	.
32A-\	.	.
32B-\	.	.
32d-\	.	.
32A-\	8bb-\J 8dd-\ 8a-\	.
32B-\	.	.
32d-\	.	.
32f-X\JJJ	.	.
=144	=144	=144
32e-\LLL 32E-\	4eee-\ 4bb-\ 4ee-\ 4gn\	.
32dn\	.	.
32d-X\	.	.
32c\	.	.
32c-X\	.	.
32B-\	.	.
32An\	.	.
32A-X\	.	.
32Gn\	8ee-\L 8b-\ 8g\	.
32G-X\	.	.
32F\	.	.
32F-X\	.	.
32E-\	8ee-\ 8b-\ 8g\	.
32Dn\	.	.
32D-X\	.	.
32C\	.	.
32C-X\	8ee-\ 8b-\ 8g\	.
32BB-\	.	.
32AAn\	.	.
32AA-X\JJJ	.	.
32GGn/LLL	8ee-\J 8b-\ 8g\	.
32GG-X/	.	.
32FF/	.	.
32FF-X/JJJ	.	.
=145	=145	=145
*tremolo	*	*
!	!LO:TX:b:t=accelerando.	!
32EE-/LLL	4ee-\ 4b-\ 4gn\	.
32EEE-/	.	.
32EE-/	.	.
32EEE-/	.	.
32EE-/	.	.
32EEE-/	.	.
32EE-/	.	.
32EEE-/JJJ	.	.
4r	16g\LL	.
.	16e-\	.
.	16g\	.
.	16ee-\JJ	.
4r	16ee-\LL	.
.	16ggn\	.
.	16eee-\	.
.	16ee-\JJ	.
!!LO:LB:g=original
=146	=146	=146
32EE-/LLL	4ee-\ 4b-\ 4gn\	ff
32EEE-/	.	.
32EE-/	.	.
32EEE-/	.	.
32EE-/	.	.
32EEE-/	.	.
32EE-/	.	.
32EEE-/JJJ	.	.
*Xtremolo	*	*
4r	16g\LL	.
.	16e-\	.
.	16g\	.
.	16ee-\JJ	.
4r	16ee-\LL	.
.	16ggn\	.
.	16eee-\	.
.	16ee-\JJ	.
=147	=147	=147
!	!LO:TX:b:t=accel(lerando).	!
2.EE-/ 2.EEE-/	16gn\LL	.
.	16e-\	.
.	16g\	.
.	16ee-\JJ	.
.	16ee-\LL	.
.	16ggn\	.
.	16eee-\	.
.	16ee-\JJ	.
*	*8va	*
.	16eee-\LL	.
.	16gggn\	.
.	16eeee-\	.
.	16eee-\JJ	.
*	*X8va	*
=148	=148	=148
!	!LO:TX:a:t=loco	!
4EE-/ 4EEE-/	16ee-\LL	.
.	16ggn\	.
.	16eee-\	.
.	16ee-\JJ	.
!	!LO:TX:b:t=rit. molto	!
4FF/ 4FFF/	16ddn\LL	.
.	16e-\	.
.	16a-\	.
.	16dd\JJ	.
4GGn/ 4GGGn/	16dd-X\LL	.
.	16bb-\	.
.	16eee-\	.
.	16bn\JJ	.
*k[gn]	*k[gn]	*
=149||	=149||	=149||
*k[b-e-a-d-]	*k[b-e-a-d-]	*
!	!LO:TX:t=P:znaki:problem=tylko gn/GGn przed dwoma kreskami	!
8AAA-/L	16cc\LL	p
.	16c\	.
8E-/J	16a-\	.
.	16ee-\JJ	.
!	!LO:TX:b:t=cantabile.	!
8e-\L 8c\ 8A-\	16cc\LL	.
.	16aa-\	.
8E-\J	16eee-\	.
.	16dd-\JJ	.
8e-\L 8d-\ 8Gn\	16ddn\LL	.
.	16gg\	.
8E-\J	16eee-\	.
.	16ee-\JJ	.
!!LO:LB:g=original
=150	=150	=150
8AA-\L	16ff\LL	.
.	16f\	.
8F\J	16cc\	.
.	16aa-\JJ	.
8e-\L 8c\ 8A-\	16ee-\LL	.
.	16eee-\	.
8E-\J	16aaa-\	.
.	16eee-\JJ	.
8e-\L 8c\ 8A-\	16aa-\LL	.
.	16ee-\	.
8E-\J	16a-\	.
.	16e-\JJ	.
=151	=151	=151
8FFF/L	16f/LL	.
.	16A-/	.
8C/J	16f/	.
.	16cc/JJ	.
8c\L 8A-\ 8F\	16a-\LL	.
.	16ff\	.
8C\J	16ccc\	.
.	16b-\JJ	.
8c\L 8B-\ 8En\	16bn\LL	.
.	16een\	.
8C\J	16ccc\	.
.	16cc\JJ	.
=152	=152	=152
8FF\L	16dd-\LL	.
.	16d-\	.
8D-\J	16g\	.
.	16ff\JJ	.
8c\L 8A-\ 8F\	16cc\LL	.
.	16ccc\	.
8C\J	16fff\	.
.	16ccc\JJ	.
8c\L 8A-\ 8F\	16ff\LL	.
.	16cc\	.
8C\J	16f\	.
.	16c\JJ	.
=153	=153	=153
16c\LL	4ff\ 4b-\ 4f\	.
16g\	.	.
16d-\	.	.
16G\JJ	.	.
16E-\LL	4b-/ 4f/ 4B-/	.
16d-\	.	.
16G\	.	.
16BB-\JJ	.	.
16EE-/LL	8dd-/L 8g/ 8d-/	.
16G/	.	.
16D-/	8cc/J 8c/	.
16GG/JJ	.	.
!!LO:LB:g=original
=154	=154	=154
16AAA-\LL	4bn/ 4g/ 4Bn/	<
16EE-\	.	.
16AA-\	.	.
16E-\JJ	.	.
16AA-\LL	4cc/ 4a-/ 4c/	.
16E-\	.	.
16A-\	.	.
16e-\JJ	.	.
16A-\LL	4aa-\ 4cc\ 4a-\	[[
16e-\	.	.
16a-\	.	.
16cc\JJ	.	.
=155	=155	=155
16en\LL	4aa-\ 4ddn\ 4a-\	.
16bn\	.	p
16f\	.	.
16Bn\JJ	.	.
16G\LL	4dd\ 4a-\ 4dn\	.
16f\	.	.
16B\	.	.
16Dn\JJ	.	.
16GG\LL	8ff\L 8bn\ 8f\	.
16B\	.	.
16F\	8ee-\J 8e-\	.
!LO:TX:t=P:problem=ołówkiem dopisany ♮	!	!
!LO:SIC:v:s=16BBn	!	!
16BB-\JJ	.	.
=156	=156	=156
16CC\LL	8ddn\L 8bn\ 8dn\	<
16C\	.	.
16E-\	8ee-\J 8cc\ 8e-\	.
16c\JJ	.	.
16DD-\LL	8een\L 8cc\ 8en\	.
16D-\	.	.
16F\	8ff\J 8dd-X\ 8f\	.
16d-\JJ	.	.
16EE-\LL	8dd-\L 8f\ 8d-X\	[ p
16E-\	.	.
16B-\	8g\J 8d-\ 8G\	.
16e-\JJ	.	.
=157	=157	=157
8AAA-\L	16a-\LL	.
.	16c\	.
8E-\J	16a-\	p
.	16ee-\JJ	.
8e-\L 8c\ 8A-\	16cc\LL	.
.	16aa-\	.
8E-\J	16eee-\	.
.	16dd-\JJ	.
8e-\L 8d-\ 8G\	16ddn\LL	.
.	16gg\	.
8E-\J	16eee-\	.
.	16ee-\JJ	.
!!LO:PB:g=original
=158	=158	=158
8AA-\L	16ff\LL	.
.	16f\	.
8F\J	16cc\	.
.	16aa-\JJ	.
8e-\L 8c\ 8A-\	16ee-\LL	.
.	16eee-\	.
8E-\J	16aaa-\	.
.	16eee-\JJ	.
8e-\L 8c\ 8A-\	16aa-\LL	.
.	16ee-\	.
8E-\J	16a-\	.
.	16e-\JJ	.
=159	=159	=159
*	*^	*
16CC/LL	2ccc\ 2b-\	4aa-\	f
16C/	.	.	.
16B-/	.	.	.
16d#X/JJ	.	.	.
!LO:TX:t=P:problem=ołówkiem dopisany ♮	!	!	!
!LO:SIC:v:s=16en	!LO:TX:b:t=apasionato.	!	!
16e-/LL	.	4gg\	.
16B-/	.	.	.
16C/	.	.	.
16CC/JJ	.	.	.
16CC/LL	4ccc\ 4gg-X\ 4b-\	4ryy	.
16C/	.	.	.
16B-/	.	.	.
16e-/JJ	.	.	.
*	*v	*v	*
=160	=160	=160
16FF\LL	4ccc\ 4gg-X\ 4an\	.
16F\	.	.
16An\	.	.
16e-\JJ	.	.
16f\LL	8ff\L	.
16en\	.	.
16e-X\	8aan\ 8ff\ 8a\	.
16A\JJ	.	.
16F\LL	8bb-\	.
16En\	.	.
16E-X\	8ccc\J 8ff\ 8a\	.
16FF\JJ	.	.
=161	=161	=161
16BBB-/LL	[4bb-\ 4gg\ [4a-\	.
16BB-/	.	.
16A-/	.	.
16c#X/JJ	.	.
16dn/LL	4bb-\] 4ff\ 4a-\]	<
16A-/	.	.
16BB-/	.	.
16BBB-/JJ	.	.
16BBB-/LL	4bb-\ 4ff-X\ 4a-\	[[
16BB-/	.	.
16A-/	.	.
16d-X/JJ	.	.
!!LO:LB:g=original
=162	=162	=162
16EE-/LL	4bb-\ 4ff-X\ 4g\	.
16E-/	.	.
16G/	.	.
16d-/JJ	.	.
!	!LO:TX:b:t=riten.	!
16g\LL	8ee-\L	.
16d-\	.	.
16G\	8ee-\ 8dd-\	.
16E-\JJ	.	.
16d-\LL	8ee-\ 8cc\	.
16G\	.	.
16E-\	8ee-\J 8bn\	.
16EE-\JJ	.	.
=163	=163	=163
8AAA-/L	16ee-\LL 16cc\	f
.	16a-\ 16c\	.
8E-/J	16dd-\ 16a-\	.
.	16ff\JJ 16cc\	.
!	!LO:TX:b:t=con grandezza.	!
8e-\L 8c\ 8A-\	16ee-\LL 16cc\	.
.	16aa-\ 16cc\	.
8E-\J	16ccc\ 16aa-\	.
.	16fff\JJ 16ccc\	.
8e-\L 8d-\ 8G\	16eee-\LL 16ddd-\	.
.	16gg\ 16ee-\	.
8E-\J	16ee-\ 16dd-\	.
.	16bn\JJ 16e-\	.
=164	=164	=164
8AAA-/L	16ee-\LL 16cc\	.
.	16e-\ 16A-\	.
8AA-/J	16a-\ 16e-\	.
.	16cc\JJ 16a-\	.
8c\L 8A-\ 8E-\	16cc\LL 16a-\	.
!	!LO:TX:b:t=sempre	!
.	16ee-\ 16a-\	.
8AA-\J	16aa-\ 16ee-\	.
.	16ccc\JJ 16aa-\	.
8c\L 8G\ 8En\	16ccc\LL 16gg\	.
.	16een\ 16cc\	.
8AA-\J	16cc\ 16g\	.
.	16en\JJ 16c\	.
=165	=165	=165
8FFF/L	16cc\LL 16a-\	.
.	16f\ 16A-\	.
8C/J	16a-\ 16f\	.
.	16dd-\JJ 16a-\	<
8c\L 8A-\ 8F\	16cc\LL 16a-\	.
.	16ff\ 16a-\	.
8C\J	16aa-\ 16ff\	.
.	16ddd-\JJ 16aa-\	.
8c\L 8B-\ 8En\	16ccc\LL 16bb-\	.
.	16een\ 16cc\	.
8C\J	16cc\ 16b-\	.
.	16g\JJ 16c\	.
!!LO:LB:g=original
=166	=166	=166
!LO:TX:t=P:problem=mixed beam	!	!
8FFF/L	16cc\LL 16a-\	.
.	16c\ 16F\	.
8C\J	16f\ 16c\	.
.	16a-\JJ 16f\	.
8c\L 8A-\ 8F\	16a-\LL 16f\	.
.	16cc\ 16f\	.
8C\J	16ff\ 16cc\	.
.	16aa-\JJ 16ff\	.
8c\L 8A-\ 8En\	16aa-\LL 16een\	.
.	16cc\ 16a-\	.
8C\J	16a-\ 16en\	.
.	16c\JJ 16A-\	.
=167	=167	=167
8DD-/L 8DDD-/	16a-/LL 16f/	.
.	16d-/ 16F/	.
8D-/J 8DD-/	16f/ 16d-/	.
.	16b-/JJ 16f/	.
8d-\L 8D-\	16a-\LL 16f\	.
.	16dd-\ 16f\	.
8a-\J 8A-\	16ff\ 16dd-\	.
.	16bb-\JJ 16ff\	.
8an\L 8An\	16aan\LL 16ff\	.
.	16dd-\ 16an\	.
8A\J 8AAn\	16a\ 16f\	.
.	16d-\JJ 16An\	.
=168	=168	=168
8DDn/L 8DDDn/	16b-/LL 16f/	.
.	16dn/ 16B-/	.
8BB-/J 8BBB-/	16f/ 16d/	<
.	16cc/JJ 16f/	.
8B-\L 8BB-\	16b-/LL 16f/	.
.	16ddn/JJ 16b-/	.
8f\J 8F\	16ff\LL 16dd\	.
.	16ccc\JJ 16ff\	.
8f#X\L 8F#X\	16bb-\LL 16ff#X\	.
.	16dd\ 16b-\	.
8F#\J 8FF#X\	16b-\ 16f#X\	.
.	16d\JJ 16B-\	.
=169	=169	=169
8EE-/L 8EEE-/	16b-\LL 16g\	.
.	16e-\ 16B-\	.
8E-/J 8EE-/	16g\ 16e-\	.
.	16cc\JJ 16g\	.
8e-\L 8E-\	16b-\LL 16g\	.
.	16ee-\ 16b-\	.
8b-\J 8B-\	16gg\ 16ee-\	.
.	16ccc\JJ 16gg\	.
8bn\L 8Bn\	16bbn\LL 16gg\	.
.	16ee-\ 16bn\	.
8B\J 8BBn\	16b\ 16g\	.
.	16e-\JJ 16Bn\	.
!!LO:LB:g=original
=170	=170	=170
8EEn/L 8EEEn/	16cc\LL 16g\	.
.	16en\ 16c\	.
8C/J 8CC/	16g\ 16e\	.
.	16dd-\JJ 16g\	.
8c\L 8C\	16cc\LL 16g\	.
.	16een\ 16cc\	.
8g\J 8G\	16gg\ 16ee\	.
.	16ddd-\JJ 16gg\	.
8a-\L 8A-\	16ccc\LL 16aa-\	.
.	16ee\ 16cc\	.
8A-\J 8AA-\	16cc\ 16a-\	.
.	16en\JJ 16c\	.
=171	=171	=171
8F/L 8FF/	16cc\LL 16a-\	.
.	16f\ 16c\	.
8FF/J 8FFF/	16a-\ 16f\	.
.	16dd-\JJ 16a-\	ff
8F/L 8FF/	16cc\LL 16a-\	.
.	16ff\ 16cc\	.
8f/J 8F/	16aa-\ 16ff\	.
.	16ddd-\JJ 16aa-\	.
*clefG2	*	*
8ff/L 8f/	16ccc\LL 16aa-\	.
.	16ff\ 16cc\	.
8f/J 8F/	16cc\ 16a-\	.
.	16f\JJ 16c\	.
*clefF4	*	*
=172	=172	=172
8F#X/L 8FF#X/	16ee-\LL 16cc\	.
.	16an\ 16e-\	.
8FF#/J 8FFF#X/	16cc\ 16a\	.
.	16ff\JJ 16cc\	ff
8F#\L 8FF#\	16ee-\LL 16cc\	.
.	16aan\ 16ee-\	.
!LO:TX:t=P:problem=ołówkiem dopisany f#	!	!
!LO:SIC:v:n=1:s=8fn	!	!
8f\J 8F#\	16ccc\ 16aa\	.
.	16fff\JJ 16ccc\	.
*clefG2	*	*
!LO:TX:t=P:problem=mixed beam	!	!
8ff#X\L 8f#X\	16eee-\LL 16ccc\	.
.	16aa\ 16ee-\	.
8f#/J 8F#X/	16ee-\ 16cc\	.
.	16an\JJ 16e-\	.
*clefF4	*	*
=173	=173	=173
!	!LO:SIC:v:t=powtórzenie znakiem ale zw względu na notatkę i wersję xmlowca zostawiam rozpisane	!
8G/L 8GG/	16ff\LL 16ee-\	.
.	16b-\ 16e-\	.
8GG/J 8GGG/	16dd-\ 16b-\	.
.	16ff\JJ 16dd-\	ff
8G\L 8GG\	16ee-\LL 16dd-\	.
.	16bb-\ 16ee-\	.
8g\J 8G\	16ddd-\ 16bb-\	.
.	16fff\JJ 16ddd-\	.
*clefG2	*	*
!LO:TX:t=P:problem=mixed beam	!	!
8gg\L 8g\	16eee-\LL 16ddd-\	.
.	16bb-\ 16ee-\	.
8g/J 8G/	16ee-\ 16dd-\	.
.	16b-\JJ 16e-\	.
*clefF4	*	*
=174	=174	=174
!	!LO:TX:t=P:problem=t. 174 zapisany repetycją	!
!	!LO:TX:a:t=Drugi raz zamiast be grać h.	!
8G/L 8GG/	16ff\LL 16ee-\	.
.	16bn\ 16e-\	.
8GG/J 8GGG/	16dd-\ 16b\	.
.	16ff\JJ 16dd-\	.
8G\L 8GG\	16ee-\LL 16dd-\	.
.	16bbn\ 16ee-\	.
8g\J 8G\	16ddd-\ 16bb\	.
.	16fff\JJ 16ddd-\	.
*clefG2	*	*
!LO:TX:t=P:problem=mixed beam	!	!
8gg\L 8g\	16eee-\LL 16ddd-\	.
.	16bb\ 16ee-\	.
8g/J 8G/	16ee-\ 16dd-\	.
.	16b\JJ 16e-\	.
!!LO:LB:g=original
=175	=175	=175
*clefF4	*	*
8AA-/L 8AAA-/	16ee-\LL 16cc\	fff
!	!LO:TX:b:t=marcatissimo.	!
.	16a-\ 16c\	.
8E-/J 8EE-^^</	16cc\ 16a-\	.
.	16ff\JJ 16cc\	.
8c\L 8C\	16ee-\LL 16cc\	.
.	16aa-\ 16cc\	.
8d-\J 8D-\	16ccc\ 16aa-\	.
.	16fff\JJ 16ccc\	.
8dn\L 8Dn^^\	16eee-\LL 16ddd-\	.
.	16gg\ 16dd-\	.
8e-\J 8E-^^\	16ee-\ 16dd-\	.
.	16g\JJ 16d-\	.
=176	=176	=176
!LO:TX:t=P:problem=mixed beam	!	!
8AA-/L 8AAA-/	16f/LL 16F/	.
.	16f/ 16Bn/	.
8f\J 8F^^\	16ff/ 16f/	.
.	16ff/JJ 16bn/	.
4e-\ 4E-^^\	16ee-\LL 16e-\	.
.	16ee-\ 16cc\	.
.	16eee-\ 16ee-\	.
.	16eee-\JJ 16ccc\	.
*	*8va	*
4a-\ 4A-^^\	16aaa-\LL 16aa-\	.
.	16aaa-\ 16eee-\	.
!	!LO:TX:t=P:problem=ołówkiem wykreślone aa-	!
.	16aaaa-\ 16aaa-\	.
.	16aaaa-\JJ 16eeee-\	.
*	*X8va	*
=177	=177	=177
8FF/L 8FFF/	16cc\LL 16a-\	.
.	16f\ 16A-\	.
8C/J 8CC^^</	16a-\ 16f\	.
.	16dd-\JJ 16a-\	.
8A-/L 8AA-^^</	16cc\LL 16a-\	.
.	16ff\ 16cc\	.
8B-/J 8BB-^^</	16aa-\ 16ff\	.
.	16ddd-\JJ 16aa-\	.
8Bn/L 8BBn^^</	16ccc\LL 16bb-\	.
.	16een\ 16b-\	.
8c/J 8C^^/	16cc\ 16b-\	.
.	16en\JJ 16B-\	.
!!LO:LB:g=original
=178	=178	=178
8FF\L 8FFF\	16d-</LL 16D-</	.
.	16d-</JJ 16A-</	.
8d-\J 8D-^^>\	16dd-\LL 16d-\	.
.	16dd-\JJ 16a-\	.
4c\ 4C^^>\	16cc\LL 16c\	.
.	16cc\ 16a-\	.
.	16ccc\ 16cc\	.
.	16ccc\JJ 16aa-\	.
*	*8va	*
4f\ 4F^^>\	16fff\LL 16ff\	.
.	16fff\ 16ccc\	.
.	16ffff\ 16fff\	.
.	16ffff\JJ 16cccc\	.
*	*X8va	*
=179	=179	=179
!LO:TX:t=P:problem=mixed beam	!LO:TX:b:t=con tutta forza.	!
16EE-/LL 16EEE-/	4ff\ 4g\ 4f\	.
16e-\ 16E-\	.	.
16d-\ 16D-\	.	.
16c/JJ 16C/	.	.
16B-/LL 16BB-/	4b-/ 4g/ 4B-/	.
16A-/ 16AA-/	.	.
16G/ 16GG/	.	.
16F/JJ 16FF/	.	.
16En/LL 16EEn/	8.dd-/L 8.g/ 8.d-/	.
16F/ 16FF/	.	.
16Dn/ 16DDn/	.	.
16E-X/JJ 16EE-X/	16cc/Jk 16c/	.
=180	=180	=180
!LO:TX:t=P:problem=mixed beam	!	!
16AA-/LL 16AAA-/	4bn\ 4g\ 4Bn\	.
16f\ 16F\	.	.
16e-\ 16E-\	.	.
16c/JJ 16C/	.	.
16A-/LL 16AA-/	4cc\ 4a-\ 4c\	.
16F/ 16FF/	.	.
16E-/ 16EE-/	.	.
16C/JJ 16CC/	.	.
16AA-/LL 16AAA-/	4aa-\ 4cc\ 4a-\	.
16FF/ 16FFF/	.	.
16EE-/ 16EEE-/	.	.
16C/JJ 16CC/	.	.
!!LO:LB:g=original
=181	=181	=181
!LO:TX:t=P:problem=mixed beam	!	!
16BBn/LL 16BBBn/	4aa-\ 4ddn\ 4a-\	.
16g\ 16G\	.	.
16f\ 16F\	.	.
16e-\JJ 16E-\	.	.
16dn\LL 16Dn\	4ddn\ 4bn\ 4dn\	.
16c\ 16C\	.	.
16Bn\ 16BBn\	.	.
16A-\JJ 16AA-\	.	.
16G/LL 16GG/	8.ff\L 8.b\ 8.f\	.
16A-/ 16AA-/	.	.
16F#X/ 16FF#X/	.	.
16G/JJ 16GG/	16ee-\Jk 16e-\	.
=182	=182	=182
16C/LL 16CC/	8ddn\L 8bn\ 8dn\	.
16G/ 16GG/	.	.
16c/ 16C/	8ee-\J 8cc\ 8e-\	.
16G/JJ 16GG/	.	.
16D-/LL 16DD-/	8een\L 8cc\ 8en\	.
16B-/ 16BB-/	.	.
!	!LO:TX:t=P:problem=ołówkiem dopisany znak dd-	!
!	!LO:SIC:v:n=2:s=8dd-	!
16d-/ 16D-/	8ff\J 8dd\ 8f\	.
16B-/JJ 16BB-/	.	.
!	!LO:TX:b:t=riten.	!
16E-/LL 16EE-/	8dd-X/L 8f/ 8d-X/	.
16B-/JJ 16BB-/	.	.
16e-/LL 16E-/	8g/J 8d-/ 8G/	.
16B-/JJ 16BB-/	.	.
=183	=183	=183
8AA-/L 8AAA-^^</	16ee-\LL 16cc\	.
.	16a-\ 16c\	.
8E-/J 8EE-^^</	16cc\ 16a-\	.
.	16ff\JJ 16cc\	ff
8c\L 8C^^\	16ee-\LL 16cc\	.
.	16aa-\ 16cc\	.
8d-\J 8D-^^\	16ccc\ 16aa-\	.
.	16fff\JJ 16ccc\	.
8dn\L 8Dn^^\	16eee-\LL 16ddd-\	.
.	16gg\ 16dd-\	.
8e-\J 8E-^^\	16ee-\ 16dd-\	.
.	16g\JJ 16d-\	.
!!LO:LB:g=original
=184	=184	=184
8AAA-\L	16ee-\LL 16cc\	.
.	16e-\ 16A-\	.
!LO:TX:t=P:problem=8E- poprawione na 8AA-	!	!
8AA-\J	16a-\ 16e-\	.
.	16cc\JJ 16a-\	.
8c\L 8A-\ 8E-\	16cc\LL 16a-\	.
.	16ee-\ 16a-\	.
8AA-\J	16aa-\ 16ee-\	.
.	16ccc\JJ 16aa-\	.
8c\L 8G\ 8En\	16ccc\LL 16gg\	.
.	16een\ 16cc\	.
8AA-\J	16cc\ 16g\	.
.	16en\JJ 16c\	.
=185	=185	=185
!	!LO:TX:b:t=poco a poco	!
8AA-/L 8AAA-/	16ee-\LL 16cc\	.
.	16a-\ 16c\	.
8E-/J 8EE-/	16cc\ 16a-\	.
.	16ff\JJ 16cc\	.
8c\L 8C\	16ee-\LL 16cc\	.
.	16aa-\ 16cc\	.
8d-\J 8D-\	16ccc\ 16aa-\	.
.	16fff\JJ 16ccc\	.
8dn\L 8Dn\	16eee-\LL 16ddd-\	.
.	16gg\ 16dd-\	.
8e-\J 8E-\	16ee-\ 16dd-\	.
.	16g\JJ 16d-\	.
=186	=186	=186
8AAA-\L	16ee-\LL 16cc\	.
.	16e-\ 16A-\	.
!LO:TX:t=P:problem=8E- poprawione na 8AA-	!	!
8AA-\J	16a-\ 16e-\	.
.	16cc\JJ 16a-\	.
!	!	!LO:HP:t=diminuendo.
8c\L 8A-\ 8E-\	16cc\LL 16a-\	>
.	16dd-\ 16a-\	.
8AA-\J	16aa-\ 16ee-\	.
.	16ccc\JJ 16aa-\	.
8c\L 8G\ 8En\	16ccc\LL 16gg\	.
.	16een\ 16cc\	.
8AA-\J	16cc\ 16g\	.
.	16en\JJ 16c\	.
!!LO:PB:g=original
=187	=187	=187
8AAA-/L	16ee-\LL 16cc\	.
.	16e-\ 16A-\	.
8AA-/J	16a-\ 16e-\	.
.	16cc\JJ 16a-\	.
8c\L 8A-\ 8E-\	16cc\LL 16a-\	.
.	16ee-\ 16a-\	.
8AA-\J	16aa-\ 16ee-\	.
.	16ccc\JJ 16aa-\	.
8c\L 8G\ 8En\	16ccc\LL 16gg\	.
.	16een\ 16cc\	.
8AA-\J	16cc\ 16g\	.
.	16en\JJ 16c\	.
=188	=188	=188
8AA-\L	16eee-\LL 16ccc\	.
.	16ee-\ 16a-\	.
8A-\J	16aa-\ 16ee-\	.
.	16ccc\JJ 16aa-\	.
*clefG2	*	*
!	!	!LO:HP:t=dim.
8cc/L 8a-/ 8e-/	16ccc\LL 16aa-\	>
.	16eee-\ 16aa-\	.
*	*8va	*
8A-/J	16aaa-\ 16eee-\	.
.	16cccc\JJ 16aaa-\	.
8cc/L 8g/ 8en/	16cccc\LL 16ggg\	.
.	16eeen\ 16ccc\	.
*	*X8va	*
8A-/J	16ccc\ 16gg\	.
.	16ee\JJ 16cc\	.
=189	=189	=189
*	*8va	*
8cc/L 8a-/ 8e-X/	16cccc\LL 16aaa-\	.
.	16eee-\ 16ccc\	.
*	*X8va	*
8A-/J	16ccc\ 16aa-\	.
.	16ee-\JJ 16cc\	.
*	*8va	*
8cc/L 8g/ 8en/	16cccc\LL 16ggg\	.
.	16eeen\ 16ccc\	.
*	*X8va	*
8A-/J	16ccc\ 16gg\	.
.	16ee\JJ 16cc\	.
*	*8va	*
8cc/L 8g/ 8e/	16cccc\LL 16ggg\	.
.	16eee\ 16ccc\	.
*	*X8va	*
8A-/J	16ccc\ 16gg\	.
.	16ee\JJ 16cc\	.
!!LO:LB:g=original
=190	=190	=190
*	*8va	*
8cc\ 8a-\ 8e-\ 8A-\	16cccc\LL 16aaa-\	pp
.	16eee-\JJ 16ccc\	.
*	*X8va	*
16ccc\LL 16aa-\	8ryy	.
16ee-\JJ 16cc\	.	.
8ryy	16cc\LL 16a-\	.
.	16e-\JJ 16c\	.
!LO:CL:ed	!	!
*clefF4	*	*
!LO:TX:t=P:problem=brak klucza	!	!
16c\LL 16A-\	8ryy	.
16E-\JJ 16C\	.	.
8ryy	16A-</LL 16C</	.
.	16AA-</JJ	.
16AA-\LL 16CC\	8ryy	.
16AAA-\JJ	.	.
=191	=191	=191
4AAA-\	4ryy	.
4EE-\	4ryy	.
4AA-\	4ryy	.
4C\	4ryy	.
4E-\	4ryy	.
4A-\	4ryy	.
4c\	4ryy	.
!	!LO:TX:b:t=ad libitum.	!
4ryy	4e-\	.
4ryy	4a-\	.
4ryy	4cc\	.
4ryy	4ee-\	.
4ryy	4aa-\	.
4ryy	4ccc\	.
4ryy	4eee-\	.
*	*8va	*
4ryy	4aaa-\	.
4ryy	4cccc\	.
4ryy	4eeee-\	.
!	!LO:TX:t=P:problem=znak segno na kresce taktowej	!
!	!LO:TX:b:t=Fine.	!
!	!LO:N:vis=8	!
8ryy	8aaaa-\	.
*	*X8va	*
==	==	==
*-	*-	*-
!!!system-decoration: [(s1,s2)]
!!!RDF**kern: > = above
!!!RDF**kern: < = below
!!!RDF**dynam: p = p.
!!!RDF**dynam: pp = pp.
!!!RDF**dynam: f = f.
!!!RDF**dynam: f = ff.
!!!EED: Leszek Kubiak
!!!EEV: 2021-05-20
!!!ENC: Katarzyna Serwa
!!!END: 2021-05-03
